( Made using CamBam - http://www.cambam.co.uk )
( load_cell_spacer 2/7/2017 8:41:17 PM )
( T3 : 0.125 )
G20 G90 G64 G40
G0 Z0.125
( T3 : 0.125 )
T3 M6
( holes )
G17
M3 S1000
G0 X0.0625 Y0.375
G1 F40.0 Z-0.005
G2 F80.0 X-0.0313 Y0.3209 I-0.0625 J0.0
G2 Y0.4291 I0.0313 J0.0541
G2 X0.0625 Y0.375 I0.0313 J-0.0541
G1 F40.0 Z-0.01
G2 F80.0 X-0.0313 Y0.3209 I-0.0625 J0.0
G2 Y0.4291 I0.0313 J0.0541
G2 X0.0625 Y0.375 I0.0313 J-0.0541
G1 F40.0 Z-0.015
G2 F80.0 X-0.0313 Y0.3209 I-0.0625 J0.0
G2 Y0.4291 I0.0313 J0.0541
G2 X0.0625 Y0.375 I0.0313 J-0.0541
G1 F40.0 Z-0.02
G2 F80.0 X-0.0313 Y0.3209 I-0.0625 J0.0
G2 Y0.4291 I0.0313 J0.0541
G2 X0.0625 Y0.375 I0.0313 J-0.0541
G1 F40.0 Z-0.025
G2 F80.0 X-0.0313 Y0.3209 I-0.0625 J0.0
G2 Y0.4291 I0.0313 J0.0541
G2 X0.0625 Y0.375 I0.0313 J-0.0541
G1 F40.0 Z-0.03
G2 F80.0 X-0.0313 Y0.3209 I-0.0625 J0.0
G2 Y0.4291 I0.0313 J0.0541
G2 X0.0625 Y0.375 I0.0313 J-0.0541
G1 F40.0 Z-0.035
G2 F80.0 X-0.0313 Y0.3209 I-0.0625 J0.0
G2 Y0.4291 I0.0313 J0.0541
G2 X0.0625 Y0.375 I0.0313 J-0.0541
G1 F40.0 Z-0.04
G2 F80.0 X-0.0313 Y0.3209 I-0.0625 J0.0
G2 Y0.4291 I0.0313 J0.0541
G2 X0.0625 Y0.375 I0.0313 J-0.0541
G1 F40.0 Z-0.045
G2 F80.0 X-0.0313 Y0.3209 I-0.0625 J0.0
G2 Y0.4291 I0.0313 J0.0541
G2 X0.0625 Y0.375 I0.0313 J-0.0541
G1 F40.0 Z-0.05
G2 F80.0 X-0.0313 Y0.3209 I-0.0625 J0.0
G2 Y0.4291 I0.0313 J0.0541
G2 X0.0625 Y0.375 I0.0313 J-0.0541
G1 F40.0 Z-0.055
G2 F80.0 X-0.0313 Y0.3209 I-0.0625 J0.0
G2 Y0.4291 I0.0313 J0.0541
G2 X0.0625 Y0.375 I0.0313 J-0.0541
G1 F40.0 Z-0.06
G2 F80.0 X-0.0313 Y0.3209 I-0.0625 J0.0
G2 Y0.4291 I0.0313 J0.0541
G2 X0.0625 Y0.375 I0.0313 J-0.0541
G1 F40.0 Z-0.065
G2 F80.0 X-0.0313 Y0.3209 I-0.0625 J0.0
G2 Y0.4291 I0.0313 J0.0541
G2 X0.0625 Y0.375 I0.0313 J-0.0541
G1 F40.0 Z-0.07
G2 F80.0 X-0.0313 Y0.3209 I-0.0625 J0.0
G2 Y0.4291 I0.0313 J0.0541
G2 X0.0625 Y0.375 I0.0313 J-0.0541
G1 F40.0 Z-0.075
G2 F80.0 X-0.0313 Y0.3209 I-0.0625 J0.0
G2 Y0.4291 I0.0313 J0.0541
G2 X0.0625 Y0.375 I0.0313 J-0.0541
G1 F40.0 Z-0.08
G2 F80.0 X-0.0313 Y0.3209 I-0.0625 J0.0
G2 Y0.4291 I0.0313 J0.0541
G2 X0.0625 Y0.375 I0.0313 J-0.0541
G1 F40.0 Z-0.085
G2 F80.0 X-0.0313 Y0.3209 I-0.0625 J0.0
G2 Y0.4291 I0.0313 J0.0541
G2 X0.0625 Y0.375 I0.0313 J-0.0541
G1 F40.0 Z-0.09
G2 F80.0 X-0.0313 Y0.3209 I-0.0625 J0.0
G2 Y0.4291 I0.0313 J0.0541
G2 X0.0625 Y0.375 I0.0313 J-0.0541
G1 F40.0 Z-0.095
G2 F80.0 X-0.0313 Y0.3209 I-0.0625 J0.0
G2 Y0.4291 I0.0313 J0.0541
G2 X0.0625 Y0.375 I0.0313 J-0.0541
G1 F40.0 Z-0.1
G2 F80.0 X-0.0313 Y0.3209 I-0.0625 J0.0
G2 Y0.4291 I0.0313 J0.0541
G2 X0.0625 Y0.375 I0.0313 J-0.0541
G1 F40.0 Z-0.105
G2 F80.0 X-0.0313 Y0.3209 I-0.0625 J0.0
G2 Y0.4291 I0.0313 J0.0541
G2 X0.0625 Y0.375 I0.0313 J-0.0541
G1 F40.0 Z-0.11
G2 F80.0 X-0.0313 Y0.3209 I-0.0625 J0.0
G2 Y0.4291 I0.0313 J0.0541
G2 X0.0625 Y0.375 I0.0313 J-0.0541
G1 F40.0 Z-0.115
G2 F80.0 X-0.0313 Y0.3209 I-0.0625 J0.0
G2 Y0.4291 I0.0313 J0.0541
G2 X0.0625 Y0.375 I0.0313 J-0.0541
G1 F40.0 Z-0.12
G2 F80.0 X-0.0313 Y0.3209 I-0.0625 J0.0
G2 Y0.4291 I0.0313 J0.0541
G2 X0.0625 Y0.375 I0.0313 J-0.0541
G1 F40.0 Z-0.125
G2 F80.0 X-0.0313 Y0.3209 I-0.0625 J0.0
G2 Y0.4291 I0.0313 J0.0541
G2 X0.0625 Y0.375 I0.0313 J-0.0541
G1 F40.0 Z-0.126
G2 F80.0 X-0.0313 Y0.3209 I-0.0625 J0.0
G2 Y0.4291 I0.0313 J0.0541
G2 X0.0625 Y0.375 I0.0313 J-0.0541
G0 Z0.125
G0 X0.2567 Y0.0535
G1 F40.0 Z-0.005
G2 F80.0 X0.2578 Y0.0541 I0.0323 J-0.0535
G2 X0.3515 Y0.0 I0.0313 J-0.0541
G2 X0.2578 Y-0.0541 I-0.0625 J0.0
G2 X0.2567 Y0.0535 I0.0313 J0.0541
G1 F40.0 Z-0.01
G2 F80.0 X0.2578 Y0.0541 I0.0323 J-0.0535
G2 X0.3515 Y0.0 I0.0313 J-0.0541
G2 X0.2578 Y-0.0541 I-0.0625 J0.0
G2 X0.2567 Y0.0535 I0.0313 J0.0541
G1 F40.0 Z-0.015
G2 F80.0 X0.2578 Y0.0541 I0.0323 J-0.0535
G2 X0.3515 Y0.0 I0.0313 J-0.0541
G2 X0.2578 Y-0.0541 I-0.0625 J0.0
G2 X0.2567 Y0.0535 I0.0313 J0.0541
G1 F40.0 Z-0.02
G2 F80.0 X0.2578 Y0.0541 I0.0323 J-0.0535
G2 X0.3515 Y0.0 I0.0313 J-0.0541
G2 X0.2578 Y-0.0541 I-0.0625 J0.0
G2 X0.2567 Y0.0535 I0.0313 J0.0541
G1 F40.0 Z-0.025
G2 F80.0 X0.2578 Y0.0541 I0.0323 J-0.0535
G2 X0.3515 Y0.0 I0.0313 J-0.0541
G2 X0.2578 Y-0.0541 I-0.0625 J0.0
G2 X0.2567 Y0.0535 I0.0313 J0.0541
G1 F40.0 Z-0.03
G2 F80.0 X0.2578 Y0.0541 I0.0323 J-0.0535
G2 X0.3515 Y0.0 I0.0313 J-0.0541
G2 X0.2578 Y-0.0541 I-0.0625 J0.0
G2 X0.2567 Y0.0535 I0.0313 J0.0541
G1 F40.0 Z-0.035
G2 F80.0 X0.2578 Y0.0541 I0.0323 J-0.0535
G2 X0.3515 Y0.0 I0.0313 J-0.0541
G2 X0.2578 Y-0.0541 I-0.0625 J0.0
G2 X0.2567 Y0.0535 I0.0313 J0.0541
G1 F40.0 Z-0.04
G2 F80.0 X0.2578 Y0.0541 I0.0323 J-0.0535
G2 X0.3515 Y0.0 I0.0313 J-0.0541
G2 X0.2578 Y-0.0541 I-0.0625 J0.0
G2 X0.2567 Y0.0535 I0.0313 J0.0541
G1 F40.0 Z-0.045
G2 F80.0 X0.2578 Y0.0541 I0.0323 J-0.0535
G2 X0.3515 Y0.0 I0.0313 J-0.0541
G2 X0.2578 Y-0.0541 I-0.0625 J0.0
G2 X0.2567 Y0.0535 I0.0313 J0.0541
G1 F40.0 Z-0.05
G2 F80.0 X0.2578 Y0.0541 I0.0323 J-0.0535
G2 X0.3515 Y0.0 I0.0313 J-0.0541
G2 X0.2578 Y-0.0541 I-0.0625 J0.0
G2 X0.2567 Y0.0535 I0.0313 J0.0541
G1 F40.0 Z-0.055
G2 F80.0 X0.2578 Y0.0541 I0.0323 J-0.0535
G2 X0.3515 Y0.0 I0.0313 J-0.0541
G2 X0.2578 Y-0.0541 I-0.0625 J0.0
G2 X0.2567 Y0.0535 I0.0313 J0.0541
G1 F40.0 Z-0.06
G2 F80.0 X0.2578 Y0.0541 I0.0323 J-0.0535
G2 X0.3515 Y0.0 I0.0313 J-0.0541
G2 X0.2578 Y-0.0541 I-0.0625 J0.0
G2 X0.2567 Y0.0535 I0.0313 J0.0541
G1 F40.0 Z-0.065
G2 F80.0 X0.2578 Y0.0541 I0.0323 J-0.0535
G2 X0.3515 Y0.0 I0.0313 J-0.0541
G2 X0.2578 Y-0.0541 I-0.0625 J0.0
G2 X0.2567 Y0.0535 I0.0313 J0.0541
G1 F40.0 Z-0.07
G2 F80.0 X0.2578 Y0.0541 I0.0323 J-0.0535
G2 X0.3515 Y0.0 I0.0313 J-0.0541
G2 X0.2578 Y-0.0541 I-0.0625 J0.0
G2 X0.2567 Y0.0535 I0.0313 J0.0541
G1 F40.0 Z-0.075
G2 F80.0 X0.2578 Y0.0541 I0.0323 J-0.0535
G2 X0.3515 Y0.0 I0.0313 J-0.0541
G2 X0.2578 Y-0.0541 I-0.0625 J0.0
G2 X0.2567 Y0.0535 I0.0313 J0.0541
G1 F40.0 Z-0.08
G2 F80.0 X0.2578 Y0.0541 I0.0323 J-0.0535
G2 X0.3515 Y0.0 I0.0313 J-0.0541
G2 X0.2578 Y-0.0541 I-0.0625 J0.0
G2 X0.2567 Y0.0535 I0.0313 J0.0541
G1 F40.0 Z-0.085
G2 F80.0 X0.2578 Y0.0541 I0.0323 J-0.0535
G2 X0.3515 Y0.0 I0.0313 J-0.0541
G2 X0.2578 Y-0.0541 I-0.0625 J0.0
G2 X0.2567 Y0.0535 I0.0313 J0.0541
G1 F40.0 Z-0.09
G2 F80.0 X0.2578 Y0.0541 I0.0323 J-0.0535
G2 X0.3515 Y0.0 I0.0313 J-0.0541
G2 X0.2578 Y-0.0541 I-0.0625 J0.0
G2 X0.2567 Y0.0535 I0.0313 J0.0541
G1 F40.0 Z-0.095
G2 F80.0 X0.2578 Y0.0541 I0.0323 J-0.0535
G2 X0.3515 Y0.0 I0.0313 J-0.0541
G2 X0.2578 Y-0.0541 I-0.0625 J0.0
G2 X0.2567 Y0.0535 I0.0313 J0.0541
G1 F40.0 Z-0.1
G2 F80.0 X0.2578 Y0.0541 I0.0323 J-0.0535
G2 X0.3515 Y0.0 I0.0313 J-0.0541
G2 X0.2578 Y-0.0541 I-0.0625 J0.0
G2 X0.2567 Y0.0535 I0.0313 J0.0541
G1 F40.0 Z-0.105
G2 F80.0 X0.2578 Y0.0541 I0.0323 J-0.0535
G2 X0.3515 Y0.0 I0.0313 J-0.0541
G2 X0.2578 Y-0.0541 I-0.0625 J0.0
G2 X0.2567 Y0.0535 I0.0313 J0.0541
G1 F40.0 Z-0.11
G2 F80.0 X0.2578 Y0.0541 I0.0323 J-0.0535
G2 X0.3515 Y0.0 I0.0313 J-0.0541
G2 X0.2578 Y-0.0541 I-0.0625 J0.0
G2 X0.2567 Y0.0535 I0.0313 J0.0541
G1 F40.0 Z-0.115
G2 F80.0 X0.2578 Y0.0541 I0.0323 J-0.0535
G2 X0.3515 Y0.0 I0.0313 J-0.0541
G2 X0.2578 Y-0.0541 I-0.0625 J0.0
G2 X0.2567 Y0.0535 I0.0313 J0.0541
G1 F40.0 Z-0.12
G2 F80.0 X0.2578 Y0.0541 I0.0323 J-0.0535
G2 X0.3515 Y0.0 I0.0313 J-0.0541
G2 X0.2578 Y-0.0541 I-0.0625 J0.0
G2 X0.2567 Y0.0535 I0.0313 J0.0541
G1 F40.0 Z-0.125
G2 F80.0 X0.2578 Y0.0541 I0.0323 J-0.0535
G2 X0.3515 Y0.0 I0.0313 J-0.0541
G2 X0.2578 Y-0.0541 I-0.0625 J0.0
G2 X0.2567 Y0.0535 I0.0313 J0.0541
G1 F40.0 Z-0.126
G2 F80.0 X0.2578 Y0.0541 I0.0323 J-0.0535
G2 X0.3515 Y0.0 I0.0313 J-0.0541
G2 X0.2578 Y-0.0541 I-0.0625 J0.0
G2 X0.2567 Y0.0535 I0.0313 J0.0541
G0 Z0.125
G0 X0.0321 Y-0.3214
G1 F40.0 Z-0.005
G2 F80.0 X0.0625 Y-0.375 I-0.0321 J-0.0536
G2 X-0.0313 Y-0.4291 I-0.0625 J0.0
G2 Y-0.3209 I0.0313 J0.0541
G2 X0.0321 Y-0.3214 I0.0313 J-0.0541
G1 F40.0 Z-0.01
G2 F80.0 X0.0625 Y-0.375 I-0.0321 J-0.0536
G2 X-0.0313 Y-0.4291 I-0.0625 J0.0
G2 Y-0.3209 I0.0313 J0.0541
G2 X0.0321 Y-0.3214 I0.0313 J-0.0541
G1 F40.0 Z-0.015
G2 F80.0 X0.0625 Y-0.375 I-0.0321 J-0.0536
G2 X-0.0313 Y-0.4291 I-0.0625 J0.0
G2 Y-0.3209 I0.0313 J0.0541
G2 X0.0321 Y-0.3214 I0.0313 J-0.0541
G1 F40.0 Z-0.02
G2 F80.0 X0.0625 Y-0.375 I-0.0321 J-0.0536
G2 X-0.0313 Y-0.4291 I-0.0625 J0.0
G2 Y-0.3209 I0.0313 J0.0541
G2 X0.0321 Y-0.3214 I0.0313 J-0.0541
G1 F40.0 Z-0.025
G2 F80.0 X0.0625 Y-0.375 I-0.0321 J-0.0536
G2 X-0.0313 Y-0.4291 I-0.0625 J0.0
G2 Y-0.3209 I0.0313 J0.0541
G2 X0.0321 Y-0.3214 I0.0313 J-0.0541
G1 F40.0 Z-0.03
G2 F80.0 X0.0625 Y-0.375 I-0.0321 J-0.0536
G2 X-0.0313 Y-0.4291 I-0.0625 J0.0
G2 Y-0.3209 I0.0313 J0.0541
G2 X0.0321 Y-0.3214 I0.0313 J-0.0541
G1 F40.0 Z-0.035
G2 F80.0 X0.0625 Y-0.375 I-0.0321 J-0.0536
G2 X-0.0313 Y-0.4291 I-0.0625 J0.0
G2 Y-0.3209 I0.0313 J0.0541
G2 X0.0321 Y-0.3214 I0.0313 J-0.0541
G1 F40.0 Z-0.04
G2 F80.0 X0.0625 Y-0.375 I-0.0321 J-0.0536
G2 X-0.0313 Y-0.4291 I-0.0625 J0.0
G2 Y-0.3209 I0.0313 J0.0541
G2 X0.0321 Y-0.3214 I0.0313 J-0.0541
G1 F40.0 Z-0.045
G2 F80.0 X0.0625 Y-0.375 I-0.0321 J-0.0536
G2 X-0.0313 Y-0.4291 I-0.0625 J0.0
G2 Y-0.3209 I0.0313 J0.0541
G2 X0.0321 Y-0.3214 I0.0313 J-0.0541
G1 F40.0 Z-0.05
G2 F80.0 X0.0625 Y-0.375 I-0.0321 J-0.0536
G2 X-0.0313 Y-0.4291 I-0.0625 J0.0
G2 Y-0.3209 I0.0313 J0.0541
G2 X0.0321 Y-0.3214 I0.0313 J-0.0541
G1 F40.0 Z-0.055
G2 F80.0 X0.0625 Y-0.375 I-0.0321 J-0.0536
G2 X-0.0313 Y-0.4291 I-0.0625 J0.0
G2 Y-0.3209 I0.0313 J0.0541
G2 X0.0321 Y-0.3214 I0.0313 J-0.0541
G1 F40.0 Z-0.06
G2 F80.0 X0.0625 Y-0.375 I-0.0321 J-0.0536
G2 X-0.0313 Y-0.4291 I-0.0625 J0.0
G2 Y-0.3209 I0.0313 J0.0541
G2 X0.0321 Y-0.3214 I0.0313 J-0.0541
G1 F40.0 Z-0.065
G2 F80.0 X0.0625 Y-0.375 I-0.0321 J-0.0536
G2 X-0.0313 Y-0.4291 I-0.0625 J0.0
G2 Y-0.3209 I0.0313 J0.0541
G2 X0.0321 Y-0.3214 I0.0313 J-0.0541
G1 F40.0 Z-0.07
G2 F80.0 X0.0625 Y-0.375 I-0.0321 J-0.0536
G2 X-0.0313 Y-0.4291 I-0.0625 J0.0
G2 Y-0.3209 I0.0313 J0.0541
G2 X0.0321 Y-0.3214 I0.0313 J-0.0541
G1 F40.0 Z-0.075
G2 F80.0 X0.0625 Y-0.375 I-0.0321 J-0.0536
G2 X-0.0313 Y-0.4291 I-0.0625 J0.0
G2 Y-0.3209 I0.0313 J0.0541
G2 X0.0321 Y-0.3214 I0.0313 J-0.0541
G1 F40.0 Z-0.08
G2 F80.0 X0.0625 Y-0.375 I-0.0321 J-0.0536
G2 X-0.0313 Y-0.4291 I-0.0625 J0.0
G2 Y-0.3209 I0.0313 J0.0541
G2 X0.0321 Y-0.3214 I0.0313 J-0.0541
G1 F40.0 Z-0.085
G2 F80.0 X0.0625 Y-0.375 I-0.0321 J-0.0536
G2 X-0.0313 Y-0.4291 I-0.0625 J0.0
G2 Y-0.3209 I0.0313 J0.0541
G2 X0.0321 Y-0.3214 I0.0313 J-0.0541
G1 F40.0 Z-0.09
G2 F80.0 X0.0625 Y-0.375 I-0.0321 J-0.0536
G2 X-0.0313 Y-0.4291 I-0.0625 J0.0
G2 Y-0.3209 I0.0313 J0.0541
G2 X0.0321 Y-0.3214 I0.0313 J-0.0541
G1 F40.0 Z-0.095
G2 F80.0 X0.0625 Y-0.375 I-0.0321 J-0.0536
G2 X-0.0313 Y-0.4291 I-0.0625 J0.0
G2 Y-0.3209 I0.0313 J0.0541
G2 X0.0321 Y-0.3214 I0.0313 J-0.0541
G1 F40.0 Z-0.1
G2 F80.0 X0.0625 Y-0.375 I-0.0321 J-0.0536
G2 X-0.0313 Y-0.4291 I-0.0625 J0.0
G2 Y-0.3209 I0.0313 J0.0541
G2 X0.0321 Y-0.3214 I0.0313 J-0.0541
G1 F40.0 Z-0.105
G2 F80.0 X0.0625 Y-0.375 I-0.0321 J-0.0536
G2 X-0.0313 Y-0.4291 I-0.0625 J0.0
G2 Y-0.3209 I0.0313 J0.0541
G2 X0.0321 Y-0.3214 I0.0313 J-0.0541
G1 F40.0 Z-0.11
G2 F80.0 X0.0625 Y-0.375 I-0.0321 J-0.0536
G2 X-0.0313 Y-0.4291 I-0.0625 J0.0
G2 Y-0.3209 I0.0313 J0.0541
G2 X0.0321 Y-0.3214 I0.0313 J-0.0541
G1 F40.0 Z-0.115
G2 F80.0 X0.0625 Y-0.375 I-0.0321 J-0.0536
G2 X-0.0313 Y-0.4291 I-0.0625 J0.0
G2 Y-0.3209 I0.0313 J0.0541
G2 X0.0321 Y-0.3214 I0.0313 J-0.0541
G1 F40.0 Z-0.12
G2 F80.0 X0.0625 Y-0.375 I-0.0321 J-0.0536
G2 X-0.0313 Y-0.4291 I-0.0625 J0.0
G2 Y-0.3209 I0.0313 J0.0541
G2 X0.0321 Y-0.3214 I0.0313 J-0.0541
G1 F40.0 Z-0.125
G2 F80.0 X0.0625 Y-0.375 I-0.0321 J-0.0536
G2 X-0.0313 Y-0.4291 I-0.0625 J0.0
G2 Y-0.3209 I0.0313 J0.0541
G2 X0.0321 Y-0.3214 I0.0313 J-0.0541
G1 F40.0 Z-0.126
G2 F80.0 X0.0625 Y-0.375 I-0.0321 J-0.0536
G2 X-0.0313 Y-0.4291 I-0.0625 J0.0
G2 Y-0.3209 I0.0313 J0.0541
G2 X0.0321 Y-0.3214 I0.0313 J-0.0541
G0 Z0.125
G0 X-0.2448 Y-0.0442
G1 F40.0 Z-0.005
G2 F80.0 X-0.3203 Y-0.0541 I-0.0442 J0.0442
G2 Y0.0541 I0.0313 J0.0541
G2 X-0.2265 Y0.0 I0.0313 J-0.0541
G2 X-0.2448 Y-0.0442 I-0.0625 J0.0
G1 F40.0 Z-0.01
G2 F80.0 X-0.3203 Y-0.0541 I-0.0442 J0.0442
G2 Y0.0541 I0.0313 J0.0541
G2 X-0.2265 Y0.0 I0.0313 J-0.0541
G2 X-0.2448 Y-0.0442 I-0.0625 J0.0
G1 F40.0 Z-0.015
G2 F80.0 X-0.3203 Y-0.0541 I-0.0442 J0.0442
G2 Y0.0541 I0.0313 J0.0541
G2 X-0.2265 Y0.0 I0.0313 J-0.0541
G2 X-0.2448 Y-0.0442 I-0.0625 J0.0
G1 F40.0 Z-0.02
G2 F80.0 X-0.3203 Y-0.0541 I-0.0442 J0.0442
G2 Y0.0541 I0.0313 J0.0541
G2 X-0.2265 Y0.0 I0.0313 J-0.0541
G2 X-0.2448 Y-0.0442 I-0.0625 J0.0
G1 F40.0 Z-0.025
G2 F80.0 X-0.3203 Y-0.0541 I-0.0442 J0.0442
G2 Y0.0541 I0.0313 J0.0541
G2 X-0.2265 Y0.0 I0.0313 J-0.0541
G2 X-0.2448 Y-0.0442 I-0.0625 J0.0
G1 F40.0 Z-0.03
G2 F80.0 X-0.3203 Y-0.0541 I-0.0442 J0.0442
G2 Y0.0541 I0.0313 J0.0541
G2 X-0.2265 Y0.0 I0.0313 J-0.0541
G2 X-0.2448 Y-0.0442 I-0.0625 J0.0
G1 F40.0 Z-0.035
G2 F80.0 X-0.3203 Y-0.0541 I-0.0442 J0.0442
G2 Y0.0541 I0.0313 J0.0541
G2 X-0.2265 Y0.0 I0.0313 J-0.0541
G2 X-0.2448 Y-0.0442 I-0.0625 J0.0
G1 F40.0 Z-0.04
G2 F80.0 X-0.3203 Y-0.0541 I-0.0442 J0.0442
G2 Y0.0541 I0.0313 J0.0541
G2 X-0.2265 Y0.0 I0.0313 J-0.0541
G2 X-0.2448 Y-0.0442 I-0.0625 J0.0
G1 F40.0 Z-0.045
G2 F80.0 X-0.3203 Y-0.0541 I-0.0442 J0.0442
G2 Y0.0541 I0.0313 J0.0541
G2 X-0.2265 Y0.0 I0.0313 J-0.0541
G2 X-0.2448 Y-0.0442 I-0.0625 J0.0
G1 F40.0 Z-0.05
G2 F80.0 X-0.3203 Y-0.0541 I-0.0442 J0.0442
G2 Y0.0541 I0.0313 J0.0541
G2 X-0.2265 Y0.0 I0.0313 J-0.0541
G2 X-0.2448 Y-0.0442 I-0.0625 J0.0
G1 F40.0 Z-0.055
G2 F80.0 X-0.3203 Y-0.0541 I-0.0442 J0.0442
G2 Y0.0541 I0.0313 J0.0541
G2 X-0.2265 Y0.0 I0.0313 J-0.0541
G2 X-0.2448 Y-0.0442 I-0.0625 J0.0
G1 F40.0 Z-0.06
G2 F80.0 X-0.3203 Y-0.0541 I-0.0442 J0.0442
G2 Y0.0541 I0.0313 J0.0541
G2 X-0.2265 Y0.0 I0.0313 J-0.0541
G2 X-0.2448 Y-0.0442 I-0.0625 J0.0
G1 F40.0 Z-0.065
G2 F80.0 X-0.3203 Y-0.0541 I-0.0442 J0.0442
G2 Y0.0541 I0.0313 J0.0541
G2 X-0.2265 Y0.0 I0.0313 J-0.0541
G2 X-0.2448 Y-0.0442 I-0.0625 J0.0
G1 F40.0 Z-0.07
G2 F80.0 X-0.3203 Y-0.0541 I-0.0442 J0.0442
G2 Y0.0541 I0.0313 J0.0541
G2 X-0.2265 Y0.0 I0.0313 J-0.0541
G2 X-0.2448 Y-0.0442 I-0.0625 J0.0
G1 F40.0 Z-0.075
G2 F80.0 X-0.3203 Y-0.0541 I-0.0442 J0.0442
G2 Y0.0541 I0.0313 J0.0541
G2 X-0.2265 Y0.0 I0.0313 J-0.0541
G2 X-0.2448 Y-0.0442 I-0.0625 J0.0
G1 F40.0 Z-0.08
G2 F80.0 X-0.3203 Y-0.0541 I-0.0442 J0.0442
G2 Y0.0541 I0.0313 J0.0541
G2 X-0.2265 Y0.0 I0.0313 J-0.0541
G2 X-0.2448 Y-0.0442 I-0.0625 J0.0
G1 F40.0 Z-0.085
G2 F80.0 X-0.3203 Y-0.0541 I-0.0442 J0.0442
G2 Y0.0541 I0.0313 J0.0541
G2 X-0.2265 Y0.0 I0.0313 J-0.0541
G2 X-0.2448 Y-0.0442 I-0.0625 J0.0
G1 F40.0 Z-0.09
G2 F80.0 X-0.3203 Y-0.0541 I-0.0442 J0.0442
G2 Y0.0541 I0.0313 J0.0541
G2 X-0.2265 Y0.0 I0.0313 J-0.0541
G2 X-0.2448 Y-0.0442 I-0.0625 J0.0
G1 F40.0 Z-0.095
G2 F80.0 X-0.3203 Y-0.0541 I-0.0442 J0.0442
G2 Y0.0541 I0.0313 J0.0541
G2 X-0.2265 Y0.0 I0.0313 J-0.0541
G2 X-0.2448 Y-0.0442 I-0.0625 J0.0
G1 F40.0 Z-0.1
G2 F80.0 X-0.3203 Y-0.0541 I-0.0442 J0.0442
G2 Y0.0541 I0.0313 J0.0541
G2 X-0.2265 Y0.0 I0.0313 J-0.0541
G2 X-0.2448 Y-0.0442 I-0.0625 J0.0
G1 F40.0 Z-0.105
G2 F80.0 X-0.3203 Y-0.0541 I-0.0442 J0.0442
G2 Y0.0541 I0.0313 J0.0541
G2 X-0.2265 Y0.0 I0.0313 J-0.0541
G2 X-0.2448 Y-0.0442 I-0.0625 J0.0
G1 F40.0 Z-0.11
G2 F80.0 X-0.3203 Y-0.0541 I-0.0442 J0.0442
G2 Y0.0541 I0.0313 J0.0541
G2 X-0.2265 Y0.0 I0.0313 J-0.0541
G2 X-0.2448 Y-0.0442 I-0.0625 J0.0
G1 F40.0 Z-0.115
G2 F80.0 X-0.3203 Y-0.0541 I-0.0442 J0.0442
G2 Y0.0541 I0.0313 J0.0541
G2 X-0.2265 Y0.0 I0.0313 J-0.0541
G2 X-0.2448 Y-0.0442 I-0.0625 J0.0
G1 F40.0 Z-0.12
G2 F80.0 X-0.3203 Y-0.0541 I-0.0442 J0.0442
G2 Y0.0541 I0.0313 J0.0541
G2 X-0.2265 Y0.0 I0.0313 J-0.0541
G2 X-0.2448 Y-0.0442 I-0.0625 J0.0
G1 F40.0 Z-0.125
G2 F80.0 X-0.3203 Y-0.0541 I-0.0442 J0.0442
G2 Y0.0541 I0.0313 J0.0541
G2 X-0.2265 Y0.0 I0.0313 J-0.0541
G2 X-0.2448 Y-0.0442 I-0.0625 J0.0
G1 F40.0 Z-0.126
G2 F80.0 X-0.3203 Y-0.0541 I-0.0442 J0.0442
G2 Y0.0541 I0.0313 J0.0541
G2 X-0.2265 Y0.0 I0.0313 J-0.0541
G2 X-0.2448 Y-0.0442 I-0.0625 J0.0
( cutout )
S1000
G0 Z0.125
G0 X-0.6875 Y-0.7188
G1 F40.0 Z-0.005
G1 F80.0 X0.6875
G3 X0.75 Y-0.6563 I0.0 J0.0625
G1 Y0.6563
G3 X0.6875 Y0.7188 I-0.0625 J0.0
G1 X-0.6875
G3 X-0.75 Y0.6563 I0.0 J-0.0625
G1 Y-0.6563
G3 X-0.6875 Y-0.7188 I0.0625 J0.0
G1 F40.0 Z-0.01
G1 F80.0 X0.6875
G3 X0.75 Y-0.6563 I0.0 J0.0625
G1 Y0.6563
G3 X0.6875 Y0.7188 I-0.0625 J0.0
G1 X-0.6875
G3 X-0.75 Y0.6563 I0.0 J-0.0625
G1 Y-0.6563
G3 X-0.6875 Y-0.7188 I0.0625 J0.0
G1 F40.0 Z-0.015
G1 F80.0 X0.6875
G3 X0.75 Y-0.6563 I0.0 J0.0625
G1 Y0.6563
G3 X0.6875 Y0.7188 I-0.0625 J0.0
G1 X-0.6875
G3 X-0.75 Y0.6563 I0.0 J-0.0625
G1 Y-0.6563
G3 X-0.6875 Y-0.7188 I0.0625 J0.0
G1 F40.0 Z-0.02
G1 F80.0 X0.6875
G3 X0.75 Y-0.6563 I0.0 J0.0625
G1 Y0.6563
G3 X0.6875 Y0.7188 I-0.0625 J0.0
G1 X-0.6875
G3 X-0.75 Y0.6563 I0.0 J-0.0625
G1 Y-0.6563
G3 X-0.6875 Y-0.7188 I0.0625 J0.0
G1 F40.0 Z-0.025
G1 F80.0 X0.6875
G3 X0.75 Y-0.6563 I0.0 J0.0625
G1 Y0.6563
G3 X0.6875 Y0.7188 I-0.0625 J0.0
G1 X-0.6875
G3 X-0.75 Y0.6563 I0.0 J-0.0625
G1 Y-0.6563
G3 X-0.6875 Y-0.7188 I0.0625 J0.0
G1 F40.0 Z-0.03
G1 F80.0 X0.0458
G1 X0.2083 Z-0.026
G1 X0.3708 Z-0.03
G1 X0.6875
G3 X0.75 Y-0.6563 I0.0 J0.0625
G1 Y-0.1
G1 Y0.0625 Z-0.026
G1 Y0.225 Z-0.03
G1 Y0.6563
G3 X0.6875 Y0.7188 I-0.0625 J0.0
G1 X-0.6875
G3 X-0.75 Y0.6563 I0.0 J-0.0625
G1 Y0.1625
G1 Y0.0 Z-0.026
G1 Y-0.1625 Z-0.03
G1 Y-0.6563
G3 X-0.6875 Y-0.7188 I0.0625 J0.0
G1 F40.0 Z-0.035
G1 F80.0 X0.0458
G1 X0.2083 Z-0.026
G1 X0.3708 Z-0.035
G1 X0.6875
G3 X0.75 Y-0.6563 I0.0 J0.0625
G1 Y-0.1
G1 Y0.0625 Z-0.026
G1 Y0.225 Z-0.035
G1 Y0.6563
G3 X0.6875 Y0.7188 I-0.0625 J0.0
G1 X-0.6875
G3 X-0.75 Y0.6563 I0.0 J-0.0625
G1 Y0.1625
G1 Y0.0 Z-0.026
G1 Y-0.1625 Z-0.035
G1 Y-0.6563
G3 X-0.6875 Y-0.7188 I0.0625 J0.0
G1 F40.0 Z-0.04
G1 F80.0 X0.0458
G1 X0.2083 Z-0.026
G1 X0.3708 Z-0.04
G1 X0.6875
G3 X0.75 Y-0.6563 I0.0 J0.0625
G1 Y-0.1
G1 Y0.0625 Z-0.026
G1 Y0.225 Z-0.04
G1 Y0.6563
G3 X0.6875 Y0.7188 I-0.0625 J0.0
G1 X-0.6875
G3 X-0.75 Y0.6563 I0.0 J-0.0625
G1 Y0.1625
G1 Y0.0 Z-0.026
G1 Y-0.1625 Z-0.04
G1 Y-0.6563
G3 X-0.6875 Y-0.7188 I0.0625 J0.0
G1 F40.0 Z-0.045
G1 F80.0 X0.0458
G1 X0.2083 Z-0.026
G1 X0.3708 Z-0.045
G1 X0.6875
G3 X0.75 Y-0.6563 I0.0 J0.0625
G1 Y-0.1
G1 Y0.0625 Z-0.026
G1 Y0.225 Z-0.045
G1 Y0.6563
G3 X0.6875 Y0.7188 I-0.0625 J0.0
G1 X-0.6875
G3 X-0.75 Y0.6563 I0.0 J-0.0625
G1 Y0.1625
G1 Y0.0 Z-0.026
G1 Y-0.1625 Z-0.045
G1 Y-0.6563
G3 X-0.6875 Y-0.7188 I0.0625 J0.0
G1 F40.0 Z-0.05
G1 F80.0 X0.0458
G1 X0.2083 Z-0.026
G1 X0.3708 Z-0.05
G1 X0.6875
G3 X0.75 Y-0.6563 I0.0 J0.0625
G1 Y-0.1
G1 Y0.0625 Z-0.026
G1 Y0.225 Z-0.05
G1 Y0.6563
G3 X0.6875 Y0.7188 I-0.0625 J0.0
G1 X-0.6875
G3 X-0.75 Y0.6563 I0.0 J-0.0625
G1 Y0.1625
G1 Y0.0 Z-0.026
G1 Y-0.1625 Z-0.05
G1 Y-0.6563
G3 X-0.6875 Y-0.7188 I0.0625 J0.0
G1 F40.0 Z-0.055
G1 F80.0 X0.0458
G1 X0.2083 Z-0.026
G1 X0.3708 Z-0.055
G1 X0.6875
G3 X0.75 Y-0.6563 I0.0 J0.0625
G1 Y-0.1
G1 Y0.0625 Z-0.026
G1 Y0.225 Z-0.055
G1 Y0.6563
G3 X0.6875 Y0.7188 I-0.0625 J0.0
G1 X-0.6875
G3 X-0.75 Y0.6563 I0.0 J-0.0625
G1 Y0.1625
G1 Y0.0 Z-0.026
G1 Y-0.1625 Z-0.055
G1 Y-0.6563
G3 X-0.6875 Y-0.7188 I0.0625 J0.0
G1 F40.0 Z-0.06
G1 F80.0 X0.0458
G1 X0.2083 Z-0.026
G1 X0.3708 Z-0.06
G1 X0.6875
G3 X0.75 Y-0.6563 I0.0 J0.0625
G1 Y-0.1
G1 Y0.0625 Z-0.026
G1 Y0.225 Z-0.06
G1 Y0.6563
G3 X0.6875 Y0.7188 I-0.0625 J0.0
G1 X-0.6875
G3 X-0.75 Y0.6563 I0.0 J-0.0625
G1 Y0.1625
G1 Y0.0 Z-0.026
G1 Y-0.1625 Z-0.06
G1 Y-0.6563
G3 X-0.6875 Y-0.7188 I0.0625 J0.0
G1 F40.0 Z-0.065
G1 F80.0 X0.0458
G1 X0.2083 Z-0.026
G1 X0.3708 Z-0.065
G1 X0.6875
G3 X0.75 Y-0.6563 I0.0 J0.0625
G1 Y-0.1
G1 Y0.0625 Z-0.026
G1 Y0.225 Z-0.065
G1 Y0.6563
G3 X0.6875 Y0.7188 I-0.0625 J0.0
G1 X-0.6875
G3 X-0.75 Y0.6563 I0.0 J-0.0625
G1 Y0.1625
G1 Y0.0 Z-0.026
G1 Y-0.1625 Z-0.065
G1 Y-0.6563
G3 X-0.6875 Y-0.7188 I0.0625 J0.0
G1 F40.0 Z-0.07
G1 F80.0 X0.0458
G1 X0.2083 Z-0.026
G1 X0.3708 Z-0.07
G1 X0.6875
G3 X0.75 Y-0.6563 I0.0 J0.0625
G1 Y-0.1
G1 Y0.0625 Z-0.026
G1 Y0.225 Z-0.07
G1 Y0.6563
G3 X0.6875 Y0.7188 I-0.0625 J0.0
G1 X-0.6875
G3 X-0.75 Y0.6563 I0.0 J-0.0625
G1 Y0.1625
G1 Y0.0 Z-0.026
G1 Y-0.1625 Z-0.07
G1 Y-0.6563
G3 X-0.6875 Y-0.7188 I0.0625 J0.0
G1 F40.0 Z-0.075
G1 F80.0 X0.0458
G1 X0.2083 Z-0.026
G1 X0.3708 Z-0.075
G1 X0.6875
G3 X0.75 Y-0.6563 I0.0 J0.0625
G1 Y-0.1
G1 Y0.0625 Z-0.026
G1 Y0.225 Z-0.075
G1 Y0.6563
G3 X0.6875 Y0.7188 I-0.0625 J0.0
G1 X-0.6875
G3 X-0.75 Y0.6563 I0.0 J-0.0625
G1 Y0.1625
G1 Y0.0 Z-0.026
G1 Y-0.1625 Z-0.075
G1 Y-0.6563
G3 X-0.6875 Y-0.7188 I0.0625 J0.0
G1 F40.0 Z-0.08
G1 F80.0 X0.0458
G1 X0.2083 Z-0.026
G1 X0.3708 Z-0.08
G1 X0.6875
G3 X0.75 Y-0.6563 I0.0 J0.0625
G1 Y-0.1
G1 Y0.0625 Z-0.026
G1 Y0.225 Z-0.08
G1 Y0.6563
G3 X0.6875 Y0.7188 I-0.0625 J0.0
G1 X-0.6875
G3 X-0.75 Y0.6563 I0.0 J-0.0625
G1 Y0.1625
G1 Y0.0 Z-0.026
G1 Y-0.1625 Z-0.08
G1 Y-0.6563
G3 X-0.6875 Y-0.7188 I0.0625 J0.0
G1 F40.0 Z-0.085
G1 F80.0 X0.0458
G1 X0.2083 Z-0.026
G1 X0.3708 Z-0.085
G1 X0.6875
G3 X0.75 Y-0.6563 I0.0 J0.0625
G1 Y-0.1
G1 Y0.0625 Z-0.026
G1 Y0.225 Z-0.085
G1 Y0.6563
G3 X0.6875 Y0.7188 I-0.0625 J0.0
G1 X-0.6875
G3 X-0.75 Y0.6563 I0.0 J-0.0625
G1 Y0.1625
G1 Y0.0 Z-0.026
G1 Y-0.1625 Z-0.085
G1 Y-0.6563
G3 X-0.6875 Y-0.7188 I0.0625 J0.0
G1 F40.0 Z-0.09
G1 F80.0 X0.0458
G1 X0.2083 Z-0.026
G1 X0.3708 Z-0.09
G1 X0.6875
G3 X0.75 Y-0.6563 I0.0 J0.0625
G1 Y-0.1
G1 Y0.0625 Z-0.026
G1 Y0.225 Z-0.09
G1 Y0.6563
G3 X0.6875 Y0.7188 I-0.0625 J0.0
G1 X-0.6875
G3 X-0.75 Y0.6563 I0.0 J-0.0625
G1 Y0.1625
G1 Y0.0 Z-0.026
G1 Y-0.1625 Z-0.09
G1 Y-0.6563
G3 X-0.6875 Y-0.7188 I0.0625 J0.0
G1 F40.0 Z-0.095
G1 F80.0 X0.0458
G1 X0.2083 Z-0.026
G1 X0.3708 Z-0.095
G1 X0.6875
G3 X0.75 Y-0.6563 I0.0 J0.0625
G1 Y-0.1
G1 Y0.0625 Z-0.026
G1 Y0.225 Z-0.095
G1 Y0.6563
G3 X0.6875 Y0.7188 I-0.0625 J0.0
G1 X-0.6875
G3 X-0.75 Y0.6563 I0.0 J-0.0625
G1 Y0.1625
G1 Y0.0 Z-0.026
G1 Y-0.1625 Z-0.095
G1 Y-0.6563
G3 X-0.6875 Y-0.7188 I0.0625 J0.0
G1 F40.0 Z-0.1
G1 F80.0 X0.0458
G1 X0.2083 Z-0.026
G1 X0.3708 Z-0.1
G1 X0.6875
G3 X0.75 Y-0.6563 I0.0 J0.0625
G1 Y-0.1
G1 Y0.0625 Z-0.026
G1 Y0.225 Z-0.1
G1 Y0.6563
G3 X0.6875 Y0.7188 I-0.0625 J0.0
G1 X-0.6875
G3 X-0.75 Y0.6563 I0.0 J-0.0625
G1 Y0.1625
G1 Y0.0 Z-0.026
G1 Y-0.1625 Z-0.1
G1 Y-0.6563
G3 X-0.6875 Y-0.7188 I0.0625 J0.0
G1 F40.0 Z-0.105
G1 F80.0 X0.0458
G1 X0.2083 Z-0.026
G1 X0.3708 Z-0.105
G1 X0.6875
G3 X0.75 Y-0.6563 I0.0 J0.0625
G1 Y-0.1
G1 Y0.0625 Z-0.026
G1 Y0.225 Z-0.105
G1 Y0.6563
G3 X0.6875 Y0.7188 I-0.0625 J0.0
G1 X-0.6875
G3 X-0.75 Y0.6563 I0.0 J-0.0625
G1 Y0.1625
G1 Y0.0 Z-0.026
G1 Y-0.1625 Z-0.105
G1 Y-0.6563
G3 X-0.6875 Y-0.7188 I0.0625 J0.0
G1 F40.0 Z-0.11
G1 F80.0 X0.0458
G1 X0.2083 Z-0.026
G1 X0.3708 Z-0.11
G1 X0.6875
G3 X0.75 Y-0.6563 I0.0 J0.0625
G1 Y-0.1
G1 Y0.0625 Z-0.026
G1 Y0.225 Z-0.11
G1 Y0.6563
G3 X0.6875 Y0.7188 I-0.0625 J0.0
G1 X-0.6875
G3 X-0.75 Y0.6563 I0.0 J-0.0625
G1 Y0.1625
G1 Y0.0 Z-0.026
G1 Y-0.1625 Z-0.11
G1 Y-0.6563
G3 X-0.6875 Y-0.7188 I0.0625 J0.0
G1 F40.0 Z-0.115
G1 F80.0 X0.0458
G1 X0.2083 Z-0.026
G1 X0.3708 Z-0.115
G1 X0.6875
G3 X0.75 Y-0.6563 I0.0 J0.0625
G1 Y-0.1
G1 Y0.0625 Z-0.026
G1 Y0.225 Z-0.115
G1 Y0.6563
G3 X0.6875 Y0.7188 I-0.0625 J0.0
G1 X-0.6875
G3 X-0.75 Y0.6563 I0.0 J-0.0625
G1 Y0.1625
G1 Y0.0 Z-0.026
G1 Y-0.1625 Z-0.115
G1 Y-0.6563
G3 X-0.6875 Y-0.7188 I0.0625 J0.0
G1 F40.0 Z-0.12
G1 F80.0 X0.0458
G1 X0.2083 Z-0.026
G1 X0.3708 Z-0.12
G1 X0.6875
G3 X0.75 Y-0.6563 I0.0 J0.0625
G1 Y-0.1
G1 Y0.0625 Z-0.026
G1 Y0.225 Z-0.12
G1 Y0.6563
G3 X0.6875 Y0.7188 I-0.0625 J0.0
G1 X-0.6875
G3 X-0.75 Y0.6563 I0.0 J-0.0625
G1 Y0.1625
G1 Y0.0 Z-0.026
G1 Y-0.1625 Z-0.12
G1 Y-0.6563
G3 X-0.6875 Y-0.7188 I0.0625 J0.0
G1 F40.0 Z-0.125
G1 F80.0 X0.0458
G1 X0.2083 Z-0.026
G1 X0.3708 Z-0.125
G1 X0.6875
G3 X0.75 Y-0.6563 I0.0 J0.0625
G1 Y-0.1
G1 Y0.0625 Z-0.026
G1 Y0.225 Z-0.125
G1 Y0.6563
G3 X0.6875 Y0.7188 I-0.0625 J0.0
G1 X-0.6875
G3 X-0.75 Y0.6563 I0.0 J-0.0625
G1 Y0.1625
G1 Y0.0 Z-0.026
G1 Y-0.1625 Z-0.125
G1 Y-0.6563
G3 X-0.6875 Y-0.7188 I0.0625 J0.0
G1 F40.0 Z-0.126
G1 F80.0 X0.0458
G1 X0.2083 Z-0.026
G1 X0.3708 Z-0.126
G1 X0.6875
G3 X0.75 Y-0.6563 I0.0 J0.0625
G1 Y-0.1
G1 Y0.0625 Z-0.026
G1 Y0.225 Z-0.126
G1 Y0.6563
G3 X0.6875 Y0.7188 I-0.0625 J0.0
G1 X-0.6875
G3 X-0.75 Y0.6563 I0.0 J-0.0625
G1 Y0.1625
G1 Y0.0 Z-0.026
G1 Y-0.1625 Z-0.126
G1 Y-0.6563
G3 X-0.6875 Y-0.7188 I0.0625 J0.0
G0 Z0.125
M5
M30
