( Made using CamBam - http://www.cambam.co.uk )
( motor_holder_grips_1.25 3/25/2017 7:31:49 AM )
( T4 : 0.25 )
G20 G90 G64 G40
G0 Z0.125
( T4 : 0.25 )
T4 M6
( Drill1 )
G17
M3 S1000
G0 X0.5508 Y0.6563
G0 Z0.125
G0 X0.5821 Y0.6563
G1 F40.0 Z0.0
G2 F80.0 X0.5352 Y0.6292 Z-0.0208 I-0.0313 J0.0
G2 Y0.6833 Z-0.0417 I0.0156 J0.0271
G2 X0.5821 Y0.6563 Z-0.0625 I0.0156 J-0.0271
G2 X0.5352 Y0.6292 Z-0.0833 I-0.0313 J0.0
G2 Y0.6833 Z-0.1042 I0.0156 J0.0271
G2 X0.5821 Y0.6563 Z-0.125 I0.0156 J-0.0271
G2 X0.5352 Y0.6292 Z-0.1458 I-0.0313 J0.0
G2 Y0.6833 Z-0.1667 I0.0156 J0.0271
G2 X0.5821 Y0.6563 Z-0.1875 I0.0156 J-0.0271
G2 X0.5352 Y0.6292 Z-0.2083 I-0.0313 J0.0
G2 Y0.6833 Z-0.2292 I0.0156 J0.0271
G2 X0.5821 Y0.6563 Z-0.25 I0.0156 J-0.0271
G2 X0.5352 Y0.6292 Z-0.2708 I-0.0313 J0.0
G2 Y0.6833 Z-0.2917 I0.0156 J0.0271
G2 X0.5821 Y0.6563 Z-0.3125 I0.0156 J-0.0271
G2 X0.5352 Y0.6292 Z-0.3333 I-0.0313 J0.0
G2 Y0.6833 Z-0.3542 I0.0156 J0.0271
G2 X0.5821 Y0.6563 Z-0.375 I0.0156 J-0.0271
G2 X0.5352 Y0.6292 Z-0.3958 I-0.0313 J0.0
G2 Y0.6833 Z-0.4167 I0.0156 J0.0271
G2 X0.5821 Y0.6563 Z-0.4375 I0.0156 J-0.0271
G2 X0.5352 Y0.6292 Z-0.4583 I-0.0313 J0.0
G2 Y0.6833 Z-0.4792 I0.0156 J0.0271
G2 X0.5821 Y0.6563 Z-0.5 I0.0156 J-0.0271
G2 X0.5352 Y0.6292 Z-0.5208 I-0.0313 J0.0
G2 Y0.6833 Z-0.5417 I0.0156 J0.0271
G2 X0.5821 Y0.6563 Z-0.5625 I0.0156 J-0.0271
G2 X0.5352 Y0.6292 Z-0.5833 I-0.0313 J0.0
G2 Y0.6833 Z-0.6042 I0.0156 J0.0271
G2 X0.5821 Y0.6563 Z-0.625 I0.0156 J-0.0271
G2 X0.5352 Y0.6292 Z-0.6458 I-0.0313 J0.0
G2 Y0.6833 Z-0.6667 I0.0156 J0.0271
G2 X0.5821 Y0.6563 Z-0.6875 I0.0156 J-0.0271
G2 X0.5352 Y0.6292 Z-0.7083 I-0.0313 J0.0
G2 Y0.6833 Z-0.7292 I0.0156 J0.0271
G2 X0.5821 Y0.6563 Z-0.75 I0.0156 J-0.0271
G2 X0.5352 Y0.6292 Z-0.7708 I-0.0313 J0.0
G2 Y0.6833 Z-0.7917 I0.0156 J0.0271
G2 X0.5821 Y0.6563 Z-0.8125 I0.0156 J-0.0271
G2 X0.5352 Y0.6292 Z-0.8333 I-0.0313 J0.0
G2 Y0.6833 Z-0.8542 I0.0156 J0.0271
G2 X0.5821 Y0.6563 Z-0.875 I0.0156 J-0.0271
G2 X0.5352 Y0.6292 Z-0.8958 I-0.0313 J0.0
G2 Y0.6833 Z-0.9167 I0.0156 J0.0271
G2 X0.5821 Y0.6563 Z-0.9375 I0.0156 J-0.0271
G2 X0.5352 Y0.6292 Z-0.9583 I-0.0313 J0.0
G2 Y0.6833 Z-0.9792 I0.0156 J0.0271
G2 X0.5821 Y0.6563 Z-1.0 I0.0156 J-0.0271
G2 X0.5352 Y0.6292 Z-1.0208 I-0.0313 J0.0
G2 Y0.6833 Z-1.0417 I0.0156 J0.0271
G2 X0.5821 Y0.6563 Z-1.0625 I0.0156 J-0.0271
G2 X0.5352 Y0.6292 Z-1.0833 I-0.0313 J0.0
G2 Y0.6833 Z-1.1042 I0.0156 J0.0271
G2 X0.5821 Y0.6563 Z-1.125 I0.0156 J-0.0271
G2 X0.5352 Y0.6292 I-0.0313 J0.0
G2 Y0.6833 I0.0156 J0.0271
G2 X0.5821 Y0.6563 I0.0156 J-0.0271
( Profile1 )
S1000
G0 Z0.125
G0 X1.6875 Y0.6075
G1 F40.0 Z-0.0625
G2 F80.0 X1.335 Y0.702 I0.0 J0.705
G2 X1.077 Y1.665 I0.3525 J0.6105
G3 X1.0312 Y1.8358 I-0.1083 J0.0625
G1 X0.6247 Y2.0704
G3 X0.454 Y2.0247 I-0.0625 J-0.1083
G1 X0.0107 Y1.2569
G3 X0.8009 Y-0.1119 I0.7902 J-0.4562
G1 X1.6875
G3 X1.8125 Y0.0131 I0.0 J0.125
G1 Y0.4825
G3 X1.6875 Y0.6075 I-0.125 J0.0
G1 F40.0 Z-0.125
G2 F80.0 X1.335 Y0.702 I0.0 J0.705
G2 X1.077 Y1.665 I0.3525 J0.6105
G3 X1.0312 Y1.8358 I-0.1083 J0.0625
G1 X0.6247 Y2.0704
G3 X0.454 Y2.0247 I-0.0625 J-0.1083
G1 X0.0107 Y1.2569
G3 X0.8009 Y-0.1119 I0.7902 J-0.4562
G1 X1.6875
G3 X1.8125 Y0.0131 I0.0 J0.125
G1 Y0.4825
G3 X1.6875 Y0.6075 I-0.125 J0.0
G1 F40.0 Z-0.1875
G2 F80.0 X1.335 Y0.702 I0.0 J0.705
G2 X1.077 Y1.665 I0.3525 J0.6105
G3 X1.0312 Y1.8358 I-0.1083 J0.0625
G1 X0.6247 Y2.0704
G3 X0.454 Y2.0247 I-0.0625 J-0.1083
G1 X0.0107 Y1.2569
G3 X0.8009 Y-0.1119 I0.7902 J-0.4562
G1 X1.6875
G3 X1.8125 Y0.0131 I0.0 J0.125
G1 Y0.4825
G3 X1.6875 Y0.6075 I-0.125 J0.0
G1 F40.0 Z-0.25
G2 F80.0 X1.335 Y0.702 I0.0 J0.705
G2 X1.077 Y1.665 I0.3525 J0.6105
G3 X1.0312 Y1.8358 I-0.1083 J0.0625
G1 X0.6247 Y2.0704
G3 X0.454 Y2.0247 I-0.0625 J-0.1083
G1 X0.0107 Y1.2569
G3 X0.8009 Y-0.1119 I0.7902 J-0.4562
G1 X1.6875
G3 X1.8125 Y0.0131 I0.0 J0.125
G1 Y0.4825
G3 X1.6875 Y0.6075 I-0.125 J0.0
G1 F40.0 Z-0.3125
G2 F80.0 X1.335 Y0.702 I0.0 J0.705
G2 X1.077 Y1.665 I0.3525 J0.6105
G3 X1.0312 Y1.8358 I-0.1083 J0.0625
G1 X0.6247 Y2.0704
G3 X0.454 Y2.0247 I-0.0625 J-0.1083
G1 X0.0107 Y1.2569
G3 X0.8009 Y-0.1119 I0.7902 J-0.4562
G1 X1.6875
G3 X1.8125 Y0.0131 I0.0 J0.125
G1 Y0.4825
G3 X1.6875 Y0.6075 I-0.125 J0.0
G1 F40.0 Z-0.375
G2 F80.0 X1.335 Y0.702 I0.0 J0.705
G2 X1.077 Y1.665 I0.3525 J0.6105
G3 X1.0312 Y1.8358 I-0.1083 J0.0625
G1 X0.6247 Y2.0704
G3 X0.454 Y2.0247 I-0.0625 J-0.1083
G1 X0.0107 Y1.2569
G3 X0.8009 Y-0.1119 I0.7902 J-0.4562
G1 X1.6875
G3 X1.8125 Y0.0131 I0.0 J0.125
G1 Y0.4825
G3 X1.6875 Y0.6075 I-0.125 J0.0
G1 F40.0 Z-0.4375
G2 F80.0 X1.335 Y0.702 I0.0 J0.705
G2 X1.077 Y1.665 I0.3525 J0.6105
G3 X1.0312 Y1.8358 I-0.1083 J0.0625
G1 X0.6247 Y2.0704
G3 X0.454 Y2.0247 I-0.0625 J-0.1083
G1 X0.0107 Y1.2569
G3 X0.8009 Y-0.1119 I0.7902 J-0.4562
G1 X1.6875
G3 X1.8125 Y0.0131 I0.0 J0.125
G1 Y0.4825
G3 X1.6875 Y0.6075 I-0.125 J0.0
G1 F40.0 Z-0.5
G2 F80.0 X1.335 Y0.702 I0.0 J0.705
G2 X1.077 Y1.665 I0.3525 J0.6105
G3 X1.0312 Y1.8358 I-0.1083 J0.0625
G1 X0.6247 Y2.0704
G3 X0.454 Y2.0247 I-0.0625 J-0.1083
G1 X0.0107 Y1.2569
G3 X0.8009 Y-0.1119 I0.7902 J-0.4562
G1 X1.6875
G3 X1.8125 Y0.0131 I0.0 J0.125
G1 Y0.4825
G3 X1.6875 Y0.6075 I-0.125 J0.0
G1 F40.0 Z-0.5625
G2 F80.0 X1.335 Y0.702 I0.0 J0.705
G2 X1.077 Y1.665 I0.3525 J0.6105
G3 X1.0312 Y1.8358 I-0.1083 J0.0625
G1 X0.6247 Y2.0704
G3 X0.454 Y2.0247 I-0.0625 J-0.1083
G1 X0.0107 Y1.2569
G3 X0.8009 Y-0.1119 I0.7902 J-0.4562
G1 X1.6875
G3 X1.8125 Y0.0131 I0.0 J0.125
G1 Y0.4825
G3 X1.6875 Y0.6075 I-0.125 J0.0
G1 F40.0 Z-0.625
G2 F80.0 X1.335 Y0.702 I0.0 J0.705
G2 X1.077 Y1.665 I0.3525 J0.6105
G3 X1.0312 Y1.8358 I-0.1083 J0.0625
G1 X0.6247 Y2.0704
G3 X0.454 Y2.0247 I-0.0625 J-0.1083
G1 X0.0107 Y1.2569
G3 X0.8009 Y-0.1119 I0.7902 J-0.4562
G1 X1.6875
G3 X1.8125 Y0.0131 I0.0 J0.125
G1 Y0.4825
G3 X1.6875 Y0.6075 I-0.125 J0.0
G1 F40.0 Z-0.6875
G2 F80.0 X1.335 Y0.702 I0.0 J0.705
G2 X1.077 Y1.665 I0.3525 J0.6105
G3 X1.0312 Y1.8358 I-0.1083 J0.0625
G1 X0.6247 Y2.0704
G3 X0.454 Y2.0247 I-0.0625 J-0.1083
G1 X0.0107 Y1.2569
G3 X0.8009 Y-0.1119 I0.7902 J-0.4562
G1 X1.6875
G3 X1.8125 Y0.0131 I0.0 J0.125
G1 Y0.4825
G3 X1.6875 Y0.6075 I-0.125 J0.0
G1 F40.0 Z-0.75
G2 F80.0 X1.335 Y0.702 I0.0 J0.705
G2 X1.077 Y1.665 I0.3525 J0.6105
G3 X1.0312 Y1.8358 I-0.1083 J0.0625
G1 X0.6247 Y2.0704
G3 X0.454 Y2.0247 I-0.0625 J-0.1083
G1 X0.0107 Y1.2569
G3 X0.8009 Y-0.1119 I0.7902 J-0.4562
G1 X1.6875
G3 X1.8125 Y0.0131 I0.0 J0.125
G1 Y0.4825
G3 X1.6875 Y0.6075 I-0.125 J0.0
G1 F40.0 Z-0.8125
G2 F80.0 X1.335 Y0.702 I0.0 J0.705
G2 X1.077 Y1.665 I0.3525 J0.6105
G3 X1.0312 Y1.8358 I-0.1083 J0.0625
G1 X0.6247 Y2.0704
G3 X0.454 Y2.0247 I-0.0625 J-0.1083
G1 X0.0107 Y1.2569
G3 X0.8009 Y-0.1119 I0.7902 J-0.4562
G1 X1.6875
G3 X1.8125 Y0.0131 I0.0 J0.125
G1 Y0.4825
G3 X1.6875 Y0.6075 I-0.125 J0.0
G1 F40.0 Z-0.875
G2 F80.0 X1.335 Y0.702 I0.0 J0.705
G2 X1.077 Y1.665 I0.3525 J0.6105
G3 X1.0312 Y1.8358 I-0.1083 J0.0625
G1 X0.6247 Y2.0704
G3 X0.454 Y2.0247 I-0.0625 J-0.1083
G1 X0.3772 Y1.8917
G0 Z-0.825
G1 X0.1022 Y1.4154
G1 F40.0 Z-0.875
G1 F80.0 X0.0107 Y1.2569
G3 X0.8009 Y-0.1119 I0.7902 J-0.4562
G1 X0.9858
G0 Z-0.825
G1 X1.5358
G1 F40.0 Z-0.875
G1 F80.0 X1.6875
G3 X1.8125 Y0.0131 I0.0 J0.125
G1 Y0.4825
G3 X1.6875 Y0.6075 I-0.125 J0.0
G1 F40.0 Z-0.9375
G2 F80.0 X1.335 Y0.702 I0.0 J0.705
G2 X1.077 Y1.665 I0.3525 J0.6105
G3 X1.0312 Y1.8358 I-0.1083 J0.0625
G1 X0.6247 Y2.0704
G3 X0.454 Y2.0247 I-0.0625 J-0.1083
G1 X0.3772 Y1.8917
G0 Z-0.825
G1 X0.1022 Y1.4154
G1 F40.0 Z-0.9375
G1 F80.0 X0.0107 Y1.2569
G3 X0.8009 Y-0.1119 I0.7902 J-0.4562
G1 X0.9858
G0 Z-0.825
G1 X1.5358
G1 F40.0 Z-0.9375
G1 F80.0 X1.6875
G3 X1.8125 Y0.0131 I0.0 J0.125
G1 Y0.4825
G3 X1.6875 Y0.6075 I-0.125 J0.0
G1 F40.0 Z-1.0
G2 F80.0 X1.335 Y0.702 I0.0 J0.705
G2 X1.077 Y1.665 I0.3525 J0.6105
G3 X1.0312 Y1.8358 I-0.1083 J0.0625
G1 X0.6247 Y2.0704
G3 X0.454 Y2.0247 I-0.0625 J-0.1083
G1 X0.3772 Y1.8917
G0 Z-0.825
G1 X0.1022 Y1.4154
G1 F40.0 Z-1.0
G1 F80.0 X0.0107 Y1.2569
G3 X0.8009 Y-0.1119 I0.7902 J-0.4562
G1 X0.9858
G0 Z-0.825
G1 X1.5358
G1 F40.0 Z-1.0
G1 F80.0 X1.6875
G3 X1.8125 Y0.0131 I0.0 J0.125
G1 Y0.4825
G3 X1.6875 Y0.6075 I-0.125 J0.0
G1 F40.0 Z-1.0625
G2 F80.0 X1.335 Y0.702 I0.0 J0.705
G2 X1.077 Y1.665 I0.3525 J0.6105
G3 X1.0312 Y1.8358 I-0.1083 J0.0625
G1 X0.6247 Y2.0704
G3 X0.454 Y2.0247 I-0.0625 J-0.1083
G1 X0.3772 Y1.8917
G0 Z-0.825
G1 X0.1022 Y1.4154
G1 F40.0 Z-1.0625
G1 F80.0 X0.0107 Y1.2569
G3 X0.8009 Y-0.1119 I0.7902 J-0.4562
G1 X0.9858
G0 Z-0.825
G1 X1.5358
G1 F40.0 Z-1.0625
G1 F80.0 X1.6875
G3 X1.8125 Y0.0131 I0.0 J0.125
G1 Y0.4825
G3 X1.6875 Y0.6075 I-0.125 J0.0
G1 F40.0 Z-1.125
G2 F80.0 X1.335 Y0.702 I0.0 J0.705
G2 X1.077 Y1.665 I0.3525 J0.6105
G3 X1.0312 Y1.8358 I-0.1083 J0.0625
G1 X0.6247 Y2.0704
G3 X0.454 Y2.0247 I-0.0625 J-0.1083
G1 X0.3772 Y1.8917
G0 Z-0.825
G1 X0.1022 Y1.4154
G1 F40.0 Z-1.125
G1 F80.0 X0.0107 Y1.2569
G3 X0.8009 Y-0.1119 I0.7902 J-0.4562
G1 X0.9858
G0 Z-0.825
G1 X1.5358
G1 F40.0 Z-1.125
G1 F80.0 X1.6875
G3 X1.8125 Y0.0131 I0.0 J0.125
G1 Y0.4825
G3 X1.6875 Y0.6075 I-0.125 J0.0
G0 Z0.125
M5
M30
