( Made using CamBam - http://www.cambam.co.uk )
( motor_holder_cap 3/2/2017 11:38:22 AM )
( T4 : 0.25 )
G20 G90 G64 G40
G0 Z0.125
( T4 : 0.25 )
T4 M6
( Profile2 )
G17
M3 S1000
G0 X0.575 Y0.0
G0 Z0.0313
G1 F40.0 Z-0.0625
G2 F80.0 X-0.2875 Y-0.498 I-0.575 J0.0
G2 Y0.498 I0.2875 J0.498
G2 X0.575 Y0.0 I0.2875 J-0.498
G1 F40.0 Z-0.125
G2 F80.0 X-0.2875 Y-0.498 I-0.575 J0.0
G2 Y0.498 I0.2875 J0.498
G2 X0.575 Y0.0 I0.2875 J-0.498
G1 F40.0 Z-0.1875
G2 F80.0 X-0.2875 Y-0.498 I-0.575 J0.0
G2 Y0.498 I0.2875 J0.498
G2 X0.575 Y0.0 I0.2875 J-0.498
G1 F40.0 Z-0.25
G2 F80.0 X-0.2875 Y-0.498 I-0.575 J0.0
G2 Y0.498 I0.2875 J0.498
G2 X0.575 Y0.0 I0.2875 J-0.498
G1 F40.0 Z-0.3125
G2 F80.0 X-0.2875 Y-0.498 I-0.575 J0.0
G2 Y0.498 I0.2875 J0.498
G2 X0.575 Y0.0 I0.2875 J-0.498
G1 F40.0 Z-0.375
G2 F80.0 X-0.2875 Y-0.498 I-0.575 J0.0
G2 Y0.498 I0.2875 J0.498
G2 X0.575 Y0.0 I0.2875 J-0.498
G1 F40.0 Z-0.4375
G2 F80.0 X-0.2875 Y-0.498 I-0.575 J0.0
G2 Y0.498 I0.2875 J0.498
G2 X0.575 Y0.0 I0.2875 J-0.498
G1 F40.0 Z-0.5
G2 F80.0 X-0.2875 Y-0.498 I-0.575 J0.0
G2 Y0.498 I0.2875 J0.498
G2 X0.575 Y0.0 I0.2875 J-0.498
G1 F40.0 Z-0.5625
G2 F80.0 X0.275 Y-0.505 I-0.575 J0.0
G0 Z-0.5
G2 X-0.275 I-0.275 J0.505
G1 F40.0 Z-0.5625
G2 F80.0 X-0.2875 Y-0.498 I0.275 J0.505
G2 Y0.498 I0.2875 J0.498
G2 X-0.275 Y0.505 I0.2875 J-0.498
G0 Z-0.5
G2 X0.275 I0.275 J-0.505
G1 F40.0 Z-0.5625
G2 F80.0 X0.575 Y0.0 I-0.275 J-0.505
G1 F40.0 Z-0.625
G2 F80.0 X0.275 Y-0.505 I-0.575 J0.0
G0 Z-0.5
G2 X-0.275 I-0.275 J0.505
G0 Z-0.5313
G1 F40.0 Z-0.625
G2 F80.0 X-0.2875 Y-0.498 I0.275 J0.505
G2 Y0.498 I0.2875 J0.498
G2 X-0.275 Y0.505 I0.2875 J-0.498
G0 Z-0.5
G2 X0.275 I0.275 J-0.505
G0 Z-0.5313
G1 F40.0 Z-0.625
G2 F80.0 X0.575 Y0.0 I-0.275 J-0.505
G1 F40.0 Z-0.6875
G2 F80.0 X0.275 Y-0.505 I-0.575 J0.0
G0 Z-0.5
G2 X-0.275 I-0.275 J0.505
G0 Z-0.5938
G1 F40.0 Z-0.6875
G2 F80.0 X-0.2875 Y-0.498 I0.275 J0.505
G2 Y0.498 I0.2875 J0.498
G2 X-0.275 Y0.505 I0.2875 J-0.498
G0 Z-0.5
G2 X0.275 I0.275 J-0.505
G0 Z-0.5938
G1 F40.0 Z-0.6875
G2 F80.0 X0.575 Y0.0 I-0.275 J-0.505
G1 F40.0 Z-0.75
G2 F80.0 X0.275 Y-0.505 I-0.575 J0.0
G0 Z-0.5
G2 X-0.275 I-0.275 J0.505
G0 Z-0.6563
G1 F40.0 Z-0.75
G2 F80.0 X-0.2875 Y-0.498 I0.275 J0.505
G2 Y0.498 I0.2875 J0.498
G2 X-0.275 Y0.505 I0.2875 J-0.498
G0 Z-0.5
G2 X0.275 I0.275 J-0.505
G0 Z-0.6563
G1 F40.0 Z-0.75
G2 F80.0 X0.575 Y0.0 I-0.275 J-0.505
G1 F40.0 Z-0.8
G2 F80.0 X0.275 Y-0.505 I-0.575 J0.0
G0 Z-0.5
G2 X-0.275 I-0.275 J0.505
G0 Z-0.7188
G1 F40.0 Z-0.8
G2 F80.0 X-0.2875 Y-0.498 I0.275 J0.505
G2 Y0.498 I0.2875 J0.498
G2 X-0.275 Y0.505 I0.2875 J-0.498
G0 Z-0.5
G2 X0.275 I0.275 J-0.505
G0 Z-0.7188
G1 F40.0 Z-0.8
G2 F80.0 X0.575 Y0.0 I-0.275 J-0.505
( Drill1 )
S1000
G0 Z0.125
G0 X-1.1367 Y-0.6563
G0 Z0.125
G0 X-1.1054 Y-0.6563
G0 Z0.0313
G1 F40.0 Z0.0
G2 F80.0 X-1.1523 Y-0.6833 Z-0.0208 I-0.0313 J0.0
G2 Y-0.6292 Z-0.0417 I0.0156 J0.0271
G2 X-1.1054 Y-0.6563 Z-0.0625 I0.0156 J-0.0271
G2 X-1.1523 Y-0.6833 Z-0.0833 I-0.0313 J0.0
G2 Y-0.6292 Z-0.1042 I0.0156 J0.0271
G2 X-1.1054 Y-0.6563 Z-0.125 I0.0156 J-0.0271
G2 X-1.1523 Y-0.6833 Z-0.1458 I-0.0313 J0.0
G2 Y-0.6292 Z-0.1667 I0.0156 J0.0271
G2 X-1.1054 Y-0.6563 Z-0.1875 I0.0156 J-0.0271
G2 X-1.1523 Y-0.6833 Z-0.2083 I-0.0313 J0.0
G2 Y-0.6292 Z-0.2292 I0.0156 J0.0271
G2 X-1.1054 Y-0.6563 Z-0.25 I0.0156 J-0.0271
G2 X-1.1523 Y-0.6833 Z-0.2708 I-0.0313 J0.0
G2 Y-0.6292 Z-0.2917 I0.0156 J0.0271
G2 X-1.1054 Y-0.6563 Z-0.3125 I0.0156 J-0.0271
G2 X-1.1523 Y-0.6833 Z-0.3333 I-0.0313 J0.0
G2 Y-0.6292 Z-0.3542 I0.0156 J0.0271
G2 X-1.1054 Y-0.6563 Z-0.375 I0.0156 J-0.0271
G2 X-1.1523 Y-0.6833 Z-0.3958 I-0.0313 J0.0
G2 Y-0.6292 Z-0.4167 I0.0156 J0.0271
G2 X-1.1054 Y-0.6563 Z-0.4375 I0.0156 J-0.0271
G2 X-1.1523 Y-0.6833 Z-0.4583 I-0.0313 J0.0
G2 Y-0.6292 Z-0.4792 I0.0156 J0.0271
G2 X-1.1054 Y-0.6562 Z-0.5 I0.0156 J-0.0271
G2 X-1.1523 Y-0.6833 Z-0.5208 I-0.0313 J0.0
G2 Y-0.6292 Z-0.5417 I0.0156 J0.0271
G2 X-1.1054 Y-0.6562 Z-0.5625 I0.0156 J-0.0271
G2 X-1.1523 Y-0.6833 Z-0.5833 I-0.0313 J0.0
G2 Y-0.6292 Z-0.6042 I0.0156 J0.0271
G2 X-1.1054 Y-0.6562 Z-0.625 I0.0156 J-0.0271
G2 X-1.1523 Y-0.6833 Z-0.6458 I-0.0313 J0.0
G2 Y-0.6292 Z-0.6667 I0.0156 J0.0271
G2 X-1.1054 Y-0.6562 Z-0.6875 I0.0156 J-0.0271
G2 X-1.1523 Y-0.6833 Z-0.7083 I-0.0313 J0.0
G2 Y-0.6292 Z-0.7292 I0.0156 J0.0271
G2 X-1.1054 Y-0.6562 Z-0.75 I0.0156 J-0.0271
G2 X-1.1523 Y-0.6833 Z-0.7708 I-0.0313 J0.0
G2 Y-0.6292 Z-0.7917 I0.0156 J0.0271
G2 X-1.127 Y-0.6265 Z-0.8 I0.0156 J-0.0271
G2 X-1.1157 Y-0.6795 I-0.0097 J-0.0297
G2 X-1.1672 Y-0.6627 I-0.0209 J0.0232
G2 X-1.127 Y-0.6265 I0.0306 J0.0065
G0 Z0.125
G0 X0.0313 Y1.3125
G0 Z0.0313
G1 F40.0 Z0.0
G2 F80.0 X-0.0156 Y1.2854 Z-0.0208 I-0.0313 J0.0
G2 Y1.3396 Z-0.0417 I0.0156 J0.0271
G2 X0.0313 Y1.3125 Z-0.0625 I0.0156 J-0.0271
G2 X-0.0156 Y1.2854 Z-0.0833 I-0.0313 J0.0
G2 Y1.3396 Z-0.1042 I0.0156 J0.0271
G2 X0.0313 Y1.3125 Z-0.125 I0.0156 J-0.0271
G2 X-0.0156 Y1.2854 Z-0.1458 I-0.0313 J0.0
G2 Y1.3396 Z-0.1667 I0.0156 J0.0271
G2 X0.0313 Y1.3125 Z-0.1875 I0.0156 J-0.0271
G2 X-0.0156 Y1.2854 Z-0.2083 I-0.0313 J0.0
G2 Y1.3396 Z-0.2292 I0.0156 J0.0271
G2 X0.0313 Y1.3125 Z-0.25 I0.0156 J-0.0271
G2 X-0.0156 Y1.2854 Z-0.2708 I-0.0313 J0.0
G2 Y1.3396 Z-0.2917 I0.0156 J0.0271
G2 X0.0313 Y1.3125 Z-0.3125 I0.0156 J-0.0271
G2 X-0.0156 Y1.2854 Z-0.3333 I-0.0312 J0.0
G2 Y1.3396 Z-0.3542 I0.0156 J0.0271
G2 X0.0313 Y1.3125 Z-0.375 I0.0156 J-0.0271
G2 X-0.0156 Y1.2854 Z-0.3958 I-0.0313 J0.0
G2 Y1.3396 Z-0.4167 I0.0156 J0.0271
G2 X0.0313 Y1.3125 Z-0.4375 I0.0156 J-0.0271
G2 X-0.0156 Y1.2854 Z-0.4583 I-0.0312 J0.0
G2 Y1.3396 Z-0.4792 I0.0156 J0.0271
G2 X0.0313 Y1.3125 Z-0.5 I0.0156 J-0.0271
G2 X-0.0156 Y1.2854 Z-0.5208 I-0.0313 J0.0
G2 Y1.3396 Z-0.5417 I0.0156 J0.0271
G2 X0.0313 Y1.3125 Z-0.5625 I0.0156 J-0.0271
G2 X-0.0156 Y1.2854 Z-0.5833 I-0.0312 J0.0
G2 Y1.3396 Z-0.6042 I0.0156 J0.0271
G2 X0.0313 Y1.3125 Z-0.625 I0.0156 J-0.0271
G2 X-0.0156 Y1.2854 Z-0.6458 I-0.0313 J0.0
G2 Y1.3396 Z-0.6667 I0.0156 J0.0271
G2 X0.0313 Y1.3125 Z-0.6875 I0.0156 J-0.0271
G2 X-0.0156 Y1.2854 Z-0.7083 I-0.0313 J0.0
G2 Y1.3396 Z-0.7292 I0.0156 J0.0271
G2 X0.0313 Y1.3125 Z-0.75 I0.0156 J-0.0271
G2 X-0.0156 Y1.2854 Z-0.7708 I-0.0313 J0.0
G2 Y1.3396 Z-0.7917 I0.0156 J0.0271
G2 X0.0097 Y1.3422 Z-0.8 I0.0156 J-0.0271
G2 X0.0209 Y1.2893 I-0.0097 J-0.0297
G2 X-0.0306 Y1.306 I-0.0209 J0.0232
G2 X0.0097 Y1.3422 I0.0306 J0.0065
G0 Z0.125
G0 X1.1679 Y-0.6563
G0 Z0.0313
G1 F40.0 Z0.0
G2 F80.0 X1.121 Y-0.6833 Z-0.0208 I-0.0313 J0.0
G2 Y-0.6292 Z-0.0417 I0.0156 J0.0271
G2 X1.1679 Y-0.6563 Z-0.0625 I0.0156 J-0.0271
G2 X1.121 Y-0.6833 Z-0.0833 I-0.0313 J0.0
G2 Y-0.6292 Z-0.1042 I0.0156 J0.0271
G2 X1.1679 Y-0.6563 Z-0.125 I0.0156 J-0.0271
G2 X1.121 Y-0.6833 Z-0.1458 I-0.0313 J0.0
G2 Y-0.6292 Z-0.1667 I0.0156 J0.0271
G2 X1.1679 Y-0.6563 Z-0.1875 I0.0156 J-0.0271
G2 X1.121 Y-0.6833 Z-0.2083 I-0.0313 J0.0
G2 Y-0.6292 Z-0.2292 I0.0156 J0.0271
G2 X1.1679 Y-0.6563 Z-0.25 I0.0156 J-0.0271
G2 X1.121 Y-0.6833 Z-0.2708 I-0.0313 J0.0
G2 Y-0.6292 Z-0.2917 I0.0156 J0.0271
G2 X1.1679 Y-0.6563 Z-0.3125 I0.0156 J-0.0271
G2 X1.121 Y-0.6833 Z-0.3333 I-0.0313 J0.0
G2 Y-0.6292 Z-0.3542 I0.0156 J0.0271
G2 X1.1679 Y-0.6563 Z-0.375 I0.0156 J-0.0271
G2 X1.121 Y-0.6833 Z-0.3958 I-0.0313 J0.0
G2 Y-0.6292 Z-0.4167 I0.0156 J0.0271
G2 X1.1679 Y-0.6563 Z-0.4375 I0.0156 J-0.0271
G2 X1.121 Y-0.6833 Z-0.4583 I-0.0313 J0.0
G2 Y-0.6292 Z-0.4792 I0.0156 J0.0271
G2 X1.1679 Y-0.6563 Z-0.5 I0.0156 J-0.0271
G2 X1.121 Y-0.6833 Z-0.5208 I-0.0313 J0.0
G2 Y-0.6292 Z-0.5417 I0.0156 J0.0271
G2 X1.1679 Y-0.6563 Z-0.5625 I0.0156 J-0.0271
G2 X1.121 Y-0.6833 Z-0.5833 I-0.0313 J0.0
G2 Y-0.6292 Z-0.6042 I0.0156 J0.0271
G2 X1.1679 Y-0.6563 Z-0.625 I0.0156 J-0.0271
G2 X1.121 Y-0.6833 Z-0.6458 I-0.0313 J0.0
G2 Y-0.6292 Z-0.6667 I0.0156 J0.0271
G2 X1.1679 Y-0.6563 Z-0.6875 I0.0156 J-0.0271
G2 X1.121 Y-0.6833 Z-0.7083 I-0.0313 J0.0
G2 Y-0.6292 Z-0.7292 I0.0156 J0.0271
G2 X1.1679 Y-0.6563 Z-0.75 I0.0156 J-0.0271
G2 X1.121 Y-0.6833 Z-0.7708 I-0.0313 J0.0
G2 Y-0.6292 Z-0.7917 I0.0156 J0.0271
G2 X1.1463 Y-0.6265 Z-0.8 I0.0156 J-0.0271
G2 X1.1576 Y-0.6795 I-0.0097 J-0.0297
G2 X1.1061 Y-0.6627 I-0.0209 J0.0232
G2 X1.1463 Y-0.6265 I0.0306 J0.0065
( Profile1 )
S1000
G0 Z0.125
G0 X-1.4492 Y-0.115
G0 Z0.0313
G1 F40.0 Z-0.0625
G3 F80.0 X-0.8242 Y-1.1975 I0.3125 J-0.5413
G3 X-0.8181 Y-1.1938 I-0.0625 J0.1083
G2 X0.8181 I0.8181 J-1.2478
G3 X0.8242 Y-1.1975 I0.0685 J0.1045
G3 X1.4492 Y-0.115 I0.3125 J0.5413
G3 X1.4429 Y-0.1116 I-0.0625 J-0.1083
G2 X0.6248 Y1.3054 I0.6715 J1.3324
G3 X0.625 Y1.3125 I-0.1248 J0.0071
G3 X-0.625 I-0.625 J0.0
G3 X-0.6248 Y1.3054 I0.125 J0.0
G2 X-1.4429 Y-0.1116 I-1.4896 J-0.0846
G3 X-1.4492 Y-0.115 I0.0563 J-0.1116
G1 F40.0 Z-0.125
G3 F80.0 X-0.8242 Y-1.1975 I0.3125 J-0.5413
G3 X-0.8181 Y-1.1938 I-0.0625 J0.1083
G2 X0.8181 I0.8181 J-1.2478
G3 X0.8242 Y-1.1975 I0.0685 J0.1045
G3 X1.4492 Y-0.115 I0.3125 J0.5413
G3 X1.4429 Y-0.1116 I-0.0625 J-0.1083
G2 X0.6248 Y1.3054 I0.6715 J1.3324
G3 X0.625 Y1.3125 I-0.1248 J0.0071
G3 X-0.625 I-0.625 J0.0
G3 X-0.6248 Y1.3054 I0.125 J0.0
G2 X-1.4429 Y-0.1116 I-1.4896 J-0.0846
G3 X-1.4492 Y-0.115 I0.0563 J-0.1116
G1 F40.0 Z-0.1875
G3 F80.0 X-0.8242 Y-1.1975 I0.3125 J-0.5413
G3 X-0.8181 Y-1.1938 I-0.0625 J0.1083
G2 X0.8181 I0.8181 J-1.2478
G3 X0.8242 Y-1.1975 I0.0685 J0.1045
G3 X1.4492 Y-0.115 I0.3125 J0.5413
G3 X1.4429 Y-0.1116 I-0.0625 J-0.1083
G2 X0.6248 Y1.3054 I0.6715 J1.3324
G3 X0.625 Y1.3125 I-0.1248 J0.0071
G3 X-0.625 I-0.625 J0.0
G3 X-0.6248 Y1.3054 I0.125 J0.0
G2 X-1.4429 Y-0.1116 I-1.4896 J-0.0846
G3 X-1.4492 Y-0.115 I0.0563 J-0.1116
G1 F40.0 Z-0.25
G3 F80.0 X-0.8242 Y-1.1975 I0.3125 J-0.5413
G3 X-0.8181 Y-1.1938 I-0.0625 J0.1083
G2 X0.8181 I0.8181 J-1.2478
G3 X0.8242 Y-1.1975 I0.0685 J0.1045
G3 X1.4492 Y-0.115 I0.3125 J0.5413
G3 X1.4429 Y-0.1116 I-0.0625 J-0.1083
G2 X0.6248 Y1.3054 I0.6715 J1.3324
G3 X0.625 Y1.3125 I-0.1248 J0.0071
G3 X-0.625 I-0.625 J0.0
G3 X-0.6248 Y1.3054 I0.125 J0.0
G2 X-1.4429 Y-0.1116 I-1.4896 J-0.0846
G3 X-1.4492 Y-0.115 I0.0563 J-0.1116
G1 F40.0 Z-0.3125
G3 F80.0 X-0.8242 Y-1.1975 I0.3125 J-0.5413
G3 X-0.8181 Y-1.1938 I-0.0625 J0.1083
G2 X0.8181 I0.8181 J-1.2478
G3 X0.8242 Y-1.1975 I0.0685 J0.1045
G3 X1.4492 Y-0.115 I0.3125 J0.5413
G3 X1.4429 Y-0.1116 I-0.0625 J-0.1083
G2 X0.6248 Y1.3054 I0.6715 J1.3324
G3 X0.625 Y1.3125 I-0.1248 J0.0071
G3 X-0.625 I-0.625 J0.0
G3 X-0.6248 Y1.3054 I0.125 J0.0
G2 X-1.4429 Y-0.1116 I-1.4896 J-0.0846
G3 X-1.4492 Y-0.115 I0.0563 J-0.1116
G1 F40.0 Z-0.375
G3 F80.0 X-0.8242 Y-1.1975 I0.3125 J-0.5413
G3 X-0.8181 Y-1.1938 I-0.0625 J0.1083
G2 X0.8181 I0.8181 J-1.2478
G3 X0.8242 Y-1.1975 I0.0685 J0.1045
G3 X1.4492 Y-0.115 I0.3125 J0.5413
G3 X1.4429 Y-0.1116 I-0.0625 J-0.1083
G2 X0.6248 Y1.3054 I0.6715 J1.3324
G3 X0.625 Y1.3125 I-0.1248 J0.0071
G3 X-0.625 I-0.625 J0.0
G3 X-0.6248 Y1.3054 I0.125 J0.0
G2 X-1.4429 Y-0.1116 I-1.4896 J-0.0846
G3 X-1.4492 Y-0.115 I0.0563 J-0.1116
G1 F40.0 Z-0.4375
G3 F80.0 X-0.8242 Y-1.1975 I0.3125 J-0.5413
G3 X-0.8181 Y-1.1938 I-0.0625 J0.1083
G2 X0.8181 I0.8181 J-1.2478
G3 X0.8242 Y-1.1975 I0.0685 J0.1045
G3 X1.4492 Y-0.115 I0.3125 J0.5413
G3 X1.4429 Y-0.1116 I-0.0625 J-0.1083
G2 X0.6248 Y1.3054 I0.6715 J1.3324
G3 X0.625 Y1.3125 I-0.1248 J0.0071
G3 X-0.625 I-0.625 J0.0
G3 X-0.6248 Y1.3054 I0.125 J0.0
G2 X-1.4429 Y-0.1116 I-1.4896 J-0.0846
G3 X-1.4492 Y-0.115 I0.0563 J-0.1116
G1 F40.0 Z-0.5
G3 F80.0 X-0.8242 Y-1.1975 I0.3125 J-0.5413
G3 X-0.8181 Y-1.1938 I-0.0625 J0.1083
G2 X0.8181 I0.8181 J-1.2478
G3 X0.8242 Y-1.1975 I0.0685 J0.1045
G3 X1.4492 Y-0.115 I0.3125 J0.5413
G3 X1.4429 Y-0.1116 I-0.0625 J-0.1083
G2 X0.6248 Y1.3054 I0.6715 J1.3324
G3 X0.625 Y1.3125 I-0.1248 J0.0071
G3 X-0.625 I-0.625 J0.0
G3 X-0.6248 Y1.3054 I0.125 J0.0
G2 X-1.4429 Y-0.1116 I-1.4896 J-0.0846
G3 X-1.4492 Y-0.115 I0.0563 J-0.1116
G1 F40.0 Z-0.5625
G3 F80.0 X-1.7546 Y-0.7501 I0.3125 J-0.5413
G0 Z-0.5
G3 X-1.4411 Y-1.2021 I0.6179 J0.0939
G1 F40.0 Z-0.5625
G3 F80.0 X-0.8242 Y-1.1975 I0.3045 J0.5458
G3 X-0.8181 Y-1.1938 I-0.0625 J0.1083
G2 X0.8181 I0.8181 J-1.2478
G3 X0.8242 Y-1.1975 I0.0685 J0.1045
G3 X1.4918 Y-1.1705 I0.3125 J0.5413
G0 Z-0.5
G3 X1.7607 Y-0.6908 I-0.3551 J0.5143
G1 F40.0 Z-0.5625
G3 F80.0 X1.4492 Y-0.115 I-0.624 J0.0345
G3 X1.4429 Y-0.1116 I-0.0625 J-0.1083
G2 X0.6248 Y1.3054 I0.6715 J1.3324
G3 X0.625 Y1.3125 I-0.1248 J0.0071
G3 X0.275 Y1.8737 I-0.625 J0.0
G0 Z-0.5
G3 X-0.275 I-0.275 J-0.5612
G1 F40.0 Z-0.5625
G3 F80.0 X-0.625 Y1.3125 I0.275 J-0.5612
G3 X-0.6248 Y1.3054 I0.125 J0.0
G2 X-1.4429 Y-0.1116 I-1.4896 J-0.0846
G3 X-1.4492 Y-0.115 I0.0563 J-0.1116
G1 F40.0 Z-0.625
G3 F80.0 X-1.7546 Y-0.7501 I0.3125 J-0.5413
G0 Z-0.5
G3 X-1.4411 Y-1.2021 I0.6179 J0.0939
G0 Z-0.5313
G1 F40.0 Z-0.625
G3 F80.0 X-0.8242 Y-1.1975 I0.3045 J0.5458
G3 X-0.8181 Y-1.1938 I-0.0625 J0.1083
G2 X0.8181 I0.8181 J-1.2478
G3 X0.8242 Y-1.1975 I0.0685 J0.1045
G3 X1.4918 Y-1.1705 I0.3125 J0.5413
G0 Z-0.5
G3 X1.7607 Y-0.6908 I-0.3551 J0.5143
G0 Z-0.5313
G1 F40.0 Z-0.625
G3 F80.0 X1.4492 Y-0.115 I-0.624 J0.0345
G3 X1.4429 Y-0.1116 I-0.0625 J-0.1083
G2 X0.6248 Y1.3054 I0.6715 J1.3324
G3 X0.625 Y1.3125 I-0.1248 J0.0071
G3 X0.275 Y1.8737 I-0.625 J0.0
G0 Z-0.5
G3 X-0.275 I-0.275 J-0.5612
G0 Z-0.5313
G1 F40.0 Z-0.625
G3 F80.0 X-0.625 Y1.3125 I0.275 J-0.5612
G3 X-0.6248 Y1.3054 I0.125 J0.0
G2 X-1.4429 Y-0.1116 I-1.4896 J-0.0846
G3 X-1.4492 Y-0.115 I0.0563 J-0.1116
G1 F40.0 Z-0.6875
G3 F80.0 X-1.7546 Y-0.7501 I0.3125 J-0.5413
G0 Z-0.5
G3 X-1.4411 Y-1.2021 I0.6179 J0.0939
G0 Z-0.5938
G1 F40.0 Z-0.6875
G3 F80.0 X-0.8242 Y-1.1975 I0.3045 J0.5458
G3 X-0.8181 Y-1.1938 I-0.0625 J0.1083
G2 X0.8181 I0.8181 J-1.2478
G3 X0.8242 Y-1.1975 I0.0685 J0.1045
G3 X1.4918 Y-1.1705 I0.3125 J0.5413
G0 Z-0.5
G3 X1.7607 Y-0.6908 I-0.3551 J0.5143
G0 Z-0.5938
G1 F40.0 Z-0.6875
G3 F80.0 X1.4492 Y-0.115 I-0.624 J0.0345
G3 X1.4429 Y-0.1116 I-0.0625 J-0.1083
G2 X0.6248 Y1.3054 I0.6715 J1.3324
G3 X0.625 Y1.3125 I-0.1248 J0.0071
G3 X0.275 Y1.8737 I-0.625 J0.0
G0 Z-0.5
G3 X-0.275 I-0.275 J-0.5612
G0 Z-0.5938
G1 F40.0 Z-0.6875
G3 F80.0 X-0.625 Y1.3125 I0.275 J-0.5612
G3 X-0.6248 Y1.3054 I0.125 J0.0
G2 X-1.4429 Y-0.1116 I-1.4896 J-0.0846
G3 X-1.4492 Y-0.115 I0.0563 J-0.1116
G1 F40.0 Z-0.75
G3 F80.0 X-1.7546 Y-0.7501 I0.3125 J-0.5413
G0 Z-0.5
G3 X-1.4411 Y-1.2021 I0.6179 J0.0939
G0 Z-0.6563
G1 F40.0 Z-0.75
G3 F80.0 X-0.8242 Y-1.1975 I0.3045 J0.5458
G3 X-0.8181 Y-1.1938 I-0.0625 J0.1083
G2 X0.8181 I0.8181 J-1.2478
G3 X0.8242 Y-1.1975 I0.0685 J0.1045
G3 X1.4918 Y-1.1705 I0.3125 J0.5413
G0 Z-0.5
G3 X1.7607 Y-0.6908 I-0.3551 J0.5143
G0 Z-0.6563
G1 F40.0 Z-0.75
G3 F80.0 X1.4492 Y-0.115 I-0.624 J0.0345
G3 X1.4429 Y-0.1116 I-0.0625 J-0.1083
G2 X0.6248 Y1.3054 I0.6715 J1.3324
G3 X0.625 Y1.3125 I-0.1248 J0.0071
G3 X0.275 Y1.8737 I-0.625 J0.0
G0 Z-0.5
G3 X-0.275 I-0.275 J-0.5612
G0 Z-0.6563
G1 F40.0 Z-0.75
G3 F80.0 X-0.625 Y1.3125 I0.275 J-0.5612
G3 X-0.6248 Y1.3054 I0.125 J0.0
G2 X-1.4429 Y-0.1116 I-1.4896 J-0.0846
G3 X-1.4492 Y-0.115 I0.0563 J-0.1116
G1 F40.0 Z-0.8
G3 F80.0 X-1.7546 Y-0.7501 I0.3125 J-0.5413
G0 Z-0.5
G3 X-1.4411 Y-1.2021 I0.6179 J0.0939
G0 Z-0.7188
G1 F40.0 Z-0.8
G3 F80.0 X-0.8242 Y-1.1975 I0.3045 J0.5458
G3 X-0.8181 Y-1.1938 I-0.0625 J0.1083
G2 X0.8181 I0.8181 J-1.2478
G3 X0.8242 Y-1.1975 I0.0685 J0.1045
G3 X1.4918 Y-1.1705 I0.3125 J0.5413
G0 Z-0.5
G3 X1.7607 Y-0.6908 I-0.3551 J0.5143
G0 Z-0.7188
G1 F40.0 Z-0.8
G3 F80.0 X1.4492 Y-0.115 I-0.624 J0.0345
G3 X1.4429 Y-0.1116 I-0.0625 J-0.1083
G2 X0.6248 Y1.3054 I0.6715 J1.3324
G3 X0.625 Y1.3125 I-0.1248 J0.0071
G3 X0.275 Y1.8737 I-0.625 J0.0
G0 Z-0.5
G3 X-0.275 I-0.275 J-0.5612
G0 Z-0.7188
G1 F40.0 Z-0.8
G3 F80.0 X-0.625 Y1.3125 I0.275 J-0.5612
G3 X-0.6248 Y1.3054 I0.125 J0.0
G2 X-1.4429 Y-0.1116 I-1.4896 J-0.0846
G3 X-1.4492 Y-0.115 I0.0563 J-0.1116
G0 Z0.125
M5
M30
