( Made using CamBam - http://www.cambam.co.uk )
( motor_holder_cap 3/5/2017 11:10:22 AM )
( T4 : 0.25 )
G20 G90 G64 G40
G0 Z0.125
( T4 : 0.25 )
T4 M6
( Profile2 )
G17
M3 S1000
G0 X0.56 Y0.0
G1 F40.0 Z-0.0625
G2 F80.0 X-0.28 Y-0.485 I-0.56 J0.0
G2 Y0.485 I0.28 J0.485
G2 X0.56 Y0.0 I0.28 J-0.485
G1 F40.0 Z-0.125
G2 F80.0 X-0.28 Y-0.485 I-0.56 J0.0
G2 Y0.485 I0.28 J0.485
G2 X0.56 Y0.0 I0.28 J-0.485
G1 F40.0 Z-0.1875
G2 F80.0 X-0.28 Y-0.485 I-0.56 J0.0
G2 Y0.485 I0.28 J0.485
G2 X0.56 Y0.0 I0.28 J-0.485
G1 F40.0 Z-0.25
G2 F80.0 X-0.28 Y-0.485 I-0.56 J0.0
G2 Y0.485 I0.28 J0.485
G2 X0.56 Y0.0 I0.28 J-0.485
G1 F40.0 Z-0.3125
G2 F80.0 X-0.28 Y-0.485 I-0.56 J0.0
G2 Y0.485 I0.28 J0.485
G2 X0.56 Y0.0 I0.28 J-0.485
G1 F40.0 Z-0.375
G2 F80.0 X-0.28 Y-0.485 I-0.56 J0.0
G2 Y0.485 I0.28 J0.485
G2 X0.56 Y0.0 I0.28 J-0.485
G1 F40.0 Z-0.4375
G2 F80.0 X-0.28 Y-0.485 I-0.56 J0.0
G2 Y0.485 I0.28 J0.485
G2 X0.56 Y0.0 I0.28 J-0.485
G1 F40.0 Z-0.5
G2 F80.0 X-0.28 Y-0.485 I-0.56 J0.0
G2 Y0.485 I0.28 J0.485
G2 X0.56 Y0.0 I0.28 J-0.485
G1 F40.0 Z-0.5625
G2 F80.0 X-0.28 Y-0.485 I-0.56 J0.0
G2 Y0.485 I0.28 J0.485
G2 X0.56 Y0.0 I0.28 J-0.485
G1 F40.0 Z-0.625
G2 F80.0 X-0.28 Y-0.485 I-0.56 J0.0
G2 Y0.485 I0.28 J0.485
G2 X0.56 Y0.0 I0.28 J-0.485
G1 F40.0 Z-0.6875
G2 F80.0 X-0.28 Y-0.485 I-0.56 J0.0
G2 Y0.485 I0.28 J0.485
G2 X0.56 Y0.0 I0.28 J-0.485
G1 F40.0 Z-0.75
G2 F80.0 X-0.28 Y-0.485 I-0.56 J0.0
G2 Y0.485 I0.28 J0.485
G2 X0.56 Y0.0 I0.28 J-0.485
G1 F40.0 Z-0.8
G2 F80.0 X-0.28 Y-0.485 I-0.56 J0.0
G2 Y0.485 I0.28 J0.485
G2 X0.56 Y0.0 I0.28 J-0.485
( Drill1 )
S1000
G0 Z0.125
G0 X-1.1367 Y-0.6563
G0 Z0.125
G0 X-1.0617 Y-0.6563
G1 F40.0 Z0.0
G2 F80.0 X-1.1742 Y-0.7212 Z-0.0208 I-0.075 J0.0
G2 Y-0.5913 Z-0.0417 I0.0375 J0.065
G2 X-1.0617 Y-0.6563 Z-0.0625 I0.0375 J-0.065
G2 X-1.1742 Y-0.7212 Z-0.0833 I-0.075 J0.0
G2 Y-0.5913 Z-0.1042 I0.0375 J0.065
G2 X-1.0617 Y-0.6563 Z-0.125 I0.0375 J-0.065
G2 X-1.1742 Y-0.7212 Z-0.1458 I-0.075 J0.0
G2 Y-0.5913 Z-0.1667 I0.0375 J0.065
G2 X-1.0617 Y-0.6563 Z-0.1875 I0.0375 J-0.065
G2 X-1.1742 Y-0.7212 Z-0.2083 I-0.075 J0.0
G2 Y-0.5913 Z-0.2292 I0.0375 J0.065
G2 X-1.0617 Y-0.6563 Z-0.25 I0.0375 J-0.065
G2 X-1.1742 Y-0.7212 Z-0.2708 I-0.075 J0.0
G2 Y-0.5913 Z-0.2917 I0.0375 J0.065
G2 X-1.0617 Y-0.6563 Z-0.3125 I0.0375 J-0.065
G2 X-1.1742 Y-0.7212 Z-0.3333 I-0.075 J0.0
G2 Y-0.5913 Z-0.3542 I0.0375 J0.065
G2 X-1.0617 Y-0.6563 Z-0.375 I0.0375 J-0.065
G2 X-1.1742 Y-0.7212 Z-0.3958 I-0.075 J0.0
G2 Y-0.5913 Z-0.4167 I0.0375 J0.065
G2 X-1.0617 Y-0.6562 Z-0.4375 I0.0375 J-0.065
G2 X-1.1742 Y-0.7212 Z-0.4583 I-0.075 J0.0
G2 Y-0.5913 Z-0.4792 I0.0375 J0.065
G2 X-1.0617 Y-0.6562 Z-0.5 I0.0375 J-0.065
G2 X-1.1742 Y-0.7212 Z-0.5208 I-0.075 J0.0
G2 Y-0.5913 Z-0.5417 I0.0375 J0.065
G2 X-1.0617 Y-0.6562 Z-0.5625 I0.0375 J-0.065
G2 X-1.1742 Y-0.7212 Z-0.5833 I-0.075 J0.0
G2 Y-0.5913 Z-0.6042 I0.0375 J0.065
G2 X-1.0617 Y-0.6562 Z-0.625 I0.0375 J-0.065
G2 X-1.1742 Y-0.7212 Z-0.6458 I-0.075 J0.0
G2 Y-0.5913 Z-0.6667 I0.0375 J0.065
G2 X-1.0617 Y-0.6562 Z-0.6875 I0.0375 J-0.065
G2 X-1.1742 Y-0.7212 Z-0.7083 I-0.075 J0.0
G2 Y-0.5913 Z-0.7292 I0.0375 J0.065
G2 X-1.0617 Y-0.6562 Z-0.75 I0.0375 J-0.065
G2 X-1.1742 Y-0.7212 Z-0.7708 I-0.075 J0.0
G2 Y-0.5913 Z-0.7917 I0.0375 J0.065
G2 X-1.1135 Y-0.5849 Z-0.8 I0.0375 J-0.065
G2 X-1.0865 Y-0.712 I-0.0232 J-0.0713
G2 X-1.21 Y-0.6718 I-0.0502 J0.0557
G2 X-1.1135 Y-0.5849 I0.0734 J0.0156
G0 Z0.125
G0 X0.075 Y1.3125
G1 F40.0 Z0.0
G2 F80.0 X-0.0375 Y1.2475 Z-0.0208 I-0.075 J0.0
G2 Y1.3775 Z-0.0417 I0.0375 J0.065
G2 X0.075 Y1.3125 Z-0.0625 I0.0375 J-0.065
G2 X-0.0375 Y1.2475 Z-0.0833 I-0.075 J0.0
G2 Y1.3775 Z-0.1042 I0.0375 J0.065
G2 X0.075 Y1.3125 Z-0.125 I0.0375 J-0.065
G2 X-0.0375 Y1.2475 Z-0.1458 I-0.075 J0.0
G2 Y1.3775 Z-0.1667 I0.0375 J0.065
G2 X0.075 Y1.3125 Z-0.1875 I0.0375 J-0.065
G2 X-0.0375 Y1.2475 Z-0.2083 I-0.075 J0.0
G2 Y1.3775 Z-0.2292 I0.0375 J0.065
G2 X0.075 Y1.3125 Z-0.25 I0.0375 J-0.065
G2 X-0.0375 Y1.2475 Z-0.2708 I-0.075 J0.0
G2 Y1.3775 Z-0.2917 I0.0375 J0.065
G2 X0.075 Y1.3125 Z-0.3125 I0.0375 J-0.065
G2 X-0.0375 Y1.2475 Z-0.3333 I-0.075 J0.0
G2 Y1.3775 Z-0.3542 I0.0375 J0.065
G2 X0.075 Y1.3125 Z-0.375 I0.0375 J-0.065
G2 X-0.0375 Y1.2475 Z-0.3958 I-0.075 J0.0
G2 Y1.3775 Z-0.4167 I0.0375 J0.065
G2 X0.075 Y1.3125 Z-0.4375 I0.0375 J-0.065
G2 X-0.0375 Y1.2475 Z-0.4583 I-0.075 J0.0
G2 Y1.3775 Z-0.4792 I0.0375 J0.065
G2 X0.075 Y1.3125 Z-0.5 I0.0375 J-0.065
G2 X-0.0375 Y1.2475 Z-0.5208 I-0.075 J0.0
G2 Y1.3775 Z-0.5417 I0.0375 J0.065
G2 X0.075 Y1.3125 Z-0.5625 I0.0375 J-0.065
G2 X-0.0375 Y1.2475 Z-0.5833 I-0.075 J0.0
G2 Y1.3775 Z-0.6042 I0.0375 J0.065
G2 X0.075 Y1.3125 Z-0.625 I0.0375 J-0.065
G2 X-0.0375 Y1.2475 Z-0.6458 I-0.075 J0.0
G2 Y1.3775 Z-0.6667 I0.0375 J0.065
G2 X0.075 Y1.3125 Z-0.6875 I0.0375 J-0.065
G2 X-0.0375 Y1.2475 Z-0.7083 I-0.075 J0.0
G2 Y1.3775 Z-0.7292 I0.0375 J0.065
G2 X0.075 Y1.3125 Z-0.75 I0.0375 J-0.065
G2 X-0.0375 Y1.2475 Z-0.7708 I-0.075 J0.0
G2 Y1.3775 Z-0.7917 I0.0375 J0.065
G2 X0.0232 Y1.3838 Z-0.8 I0.0375 J-0.065
G2 X0.0502 Y1.2568 I-0.0232 J-0.0713
G2 X-0.0734 Y1.2969 I-0.0502 J0.0557
G2 X0.0232 Y1.3838 I0.0734 J0.0156
G0 Z0.125
G0 X1.2117 Y-0.6563
G1 F40.0 Z0.0
G2 F80.0 X1.0992 Y-0.7212 Z-0.0208 I-0.075 J0.0
G2 Y-0.5913 Z-0.0417 I0.0375 J0.065
G2 X1.2117 Y-0.6563 Z-0.0625 I0.0375 J-0.065
G2 X1.0992 Y-0.7212 Z-0.0833 I-0.075 J0.0
G2 Y-0.5913 Z-0.1042 I0.0375 J0.065
G2 X1.2117 Y-0.6563 Z-0.125 I0.0375 J-0.065
G2 X1.0992 Y-0.7212 Z-0.1458 I-0.075 J0.0
G2 Y-0.5913 Z-0.1667 I0.0375 J0.065
G2 X1.2117 Y-0.6563 Z-0.1875 I0.0375 J-0.065
G2 X1.0992 Y-0.7212 Z-0.2083 I-0.075 J0.0
G2 Y-0.5913 Z-0.2292 I0.0375 J0.065
G2 X1.2117 Y-0.6563 Z-0.25 I0.0375 J-0.065
G2 X1.0992 Y-0.7212 Z-0.2708 I-0.075 J0.0
G2 Y-0.5913 Z-0.2917 I0.0375 J0.065
G2 X1.2117 Y-0.6563 Z-0.3125 I0.0375 J-0.065
G2 X1.0992 Y-0.7212 Z-0.3333 I-0.075 J0.0
G2 Y-0.5913 Z-0.3542 I0.0375 J0.065
G2 X1.2117 Y-0.6563 Z-0.375 I0.0375 J-0.065
G2 X1.0992 Y-0.7212 Z-0.3958 I-0.075 J0.0
G2 Y-0.5913 Z-0.4167 I0.0375 J0.065
G2 X1.2117 Y-0.6563 Z-0.4375 I0.0375 J-0.065
G2 X1.0992 Y-0.7212 Z-0.4583 I-0.075 J0.0
G2 Y-0.5913 Z-0.4792 I0.0375 J0.065
G2 X1.2117 Y-0.6563 Z-0.5 I0.0375 J-0.065
G2 X1.0992 Y-0.7212 Z-0.5208 I-0.075 J0.0
G2 Y-0.5913 Z-0.5417 I0.0375 J0.065
G2 X1.2117 Y-0.6562 Z-0.5625 I0.0375 J-0.065
G2 X1.0992 Y-0.7212 Z-0.5833 I-0.075 J0.0
G2 Y-0.5913 Z-0.6042 I0.0375 J0.065
G2 X1.2117 Y-0.6562 Z-0.625 I0.0375 J-0.065
G2 X1.0992 Y-0.7212 Z-0.6458 I-0.075 J0.0
G2 Y-0.5913 Z-0.6667 I0.0375 J0.065
G2 X1.2117 Y-0.6562 Z-0.6875 I0.0375 J-0.065
G2 X1.0992 Y-0.7212 Z-0.7083 I-0.075 J0.0
G2 Y-0.5913 Z-0.7292 I0.0375 J0.065
G2 X1.2117 Y-0.6562 Z-0.75 I0.0375 J-0.065
G2 X1.0992 Y-0.7212 Z-0.7708 I-0.075 J0.0
G2 Y-0.5913 Z-0.7917 I0.0375 J0.065
G2 X1.1598 Y-0.5849 Z-0.8 I0.0375 J-0.065
G2 X1.1868 Y-0.712 I-0.0232 J-0.0713
G2 X1.0633 Y-0.6718 I-0.0502 J0.0557
G2 X1.1598 Y-0.5849 I0.0734 J0.0156
( Profile1 )
S1000
G0 Z0.125
G0 X0.7902 Y1.48
G1 F40.0 Z-0.0625
G3 F80.0 X-0.7902 I-0.7902 J-0.4563
G1 X-1.6768 Y-0.0556
G3 X-0.8866 Y-1.4244 I0.7902 J-0.4563
G1 X0.8866
G3 X1.6768 Y-0.0556 I0.0 J0.9125
G1 X0.7902 Y1.48
G1 F40.0 Z-0.125
G3 F80.0 X-0.7902 I-0.7902 J-0.4563
G1 X-1.6768 Y-0.0556
G3 X-0.8866 Y-1.4244 I0.7902 J-0.4563
G1 X0.8866
G3 X1.6768 Y-0.0556 I0.0 J0.9125
G1 X0.7902 Y1.48
G1 F40.0 Z-0.1875
G3 F80.0 X-0.7902 I-0.7902 J-0.4563
G1 X-1.6768 Y-0.0556
G3 X-0.8866 Y-1.4244 I0.7902 J-0.4563
G1 X0.8866
G3 X1.6768 Y-0.0556 I0.0 J0.9125
G1 X0.7902 Y1.48
G1 F40.0 Z-0.25
G3 F80.0 X-0.7902 I-0.7902 J-0.4563
G1 X-1.6768 Y-0.0556
G3 X-0.8866 Y-1.4244 I0.7902 J-0.4563
G1 X0.8866
G3 X1.6768 Y-0.0556 I0.0 J0.9125
G1 X0.7902 Y1.48
G1 F40.0 Z-0.3125
G3 F80.0 X-0.7902 I-0.7902 J-0.4563
G1 X-1.6768 Y-0.0556
G3 X-0.8866 Y-1.4244 I0.7902 J-0.4563
G1 X0.8866
G3 X1.6768 Y-0.0556 I0.0 J0.9125
G1 X0.7902 Y1.48
G1 F40.0 Z-0.375
G3 F80.0 X-0.7902 I-0.7902 J-0.4563
G1 X-1.6768 Y-0.0556
G3 X-0.8866 Y-1.4244 I0.7902 J-0.4563
G1 X0.8866
G3 X1.6768 Y-0.0556 I0.0 J0.9125
G1 X0.7902 Y1.48
G1 F40.0 Z-0.4375
G3 F80.0 X-0.7902 I-0.7902 J-0.4563
G1 X-1.6768 Y-0.0556
G3 X-0.8866 Y-1.4244 I0.7902 J-0.4563
G1 X0.8866
G3 X1.6768 Y-0.0556 I0.0 J0.9125
G1 X0.7902 Y1.48
G1 F40.0 Z-0.5
G3 F80.0 X-0.7902 I-0.7902 J-0.4563
G1 X-1.6768 Y-0.0556
G3 X-0.8866 Y-1.4244 I0.7902 J-0.4563
G1 X0.8866
G3 X1.6768 Y-0.0556 I0.0 J0.9125
G1 X0.7902 Y1.48
G1 F40.0 Z-0.5625
G3 F80.0 X-0.6619 Y1.6519 I-0.7902 J-0.4563
G0 Z-0.5
G3 X-0.7902 Y1.48 I0.6619 J-0.6282
G1 X-0.9587 Y1.1882
G1 F40.0 Z-0.5625
G1 F80.0 X-1.6768 Y-0.0556
G3 X-1.0997 Y-1.3991 I0.7902 J-0.4563
G0 Z-0.5
G3 X-0.8866 Y-1.4244 I0.2131 J0.8873
G1 X-0.5497
G1 F40.0 Z-0.5625
G1 F80.0 X0.8866
G3 X1.7615 Y-0.2528 I0.0 J0.9125
G0 Z-0.5
G3 X1.6768 Y-0.0556 I-0.8749 J-0.2591
G1 X1.5084 Y0.2362
G1 F40.0 Z-0.5625
G1 F80.0 X0.7902 Y1.48
G1 F40.0 Z-0.625
G3 F80.0 X-0.6619 Y1.6519 I-0.7902 J-0.4563
G0 Z-0.5
G3 X-0.7902 Y1.48 I0.6619 J-0.6282
G1 X-0.9587 Y1.1882
G1 F40.0 Z-0.625
G1 F80.0 X-1.6768 Y-0.0556
G3 X-1.0997 Y-1.3991 I0.7902 J-0.4563
G0 Z-0.5
G3 X-0.8866 Y-1.4244 I0.2131 J0.8873
G1 X-0.5497
G1 F40.0 Z-0.625
G1 F80.0 X0.8866
G3 X1.7615 Y-0.2528 I0.0 J0.9125
G0 Z-0.5
G3 X1.6768 Y-0.0556 I-0.8749 J-0.2591
G1 X1.5084 Y0.2362
G1 F40.0 Z-0.625
G1 F80.0 X0.7902 Y1.48
G1 F40.0 Z-0.6875
G3 F80.0 X-0.6619 Y1.6519 I-0.7902 J-0.4563
G0 Z-0.5
G3 X-0.7902 Y1.48 I0.6619 J-0.6282
G1 X-0.9587 Y1.1882
G1 F40.0 Z-0.6875
G1 F80.0 X-1.6768 Y-0.0556
G3 X-1.0997 Y-1.3991 I0.7902 J-0.4563
G0 Z-0.5
G3 X-0.8866 Y-1.4244 I0.2131 J0.8873
G1 X-0.5497
G1 F40.0 Z-0.6875
G1 F80.0 X0.8866
G3 X1.7615 Y-0.2528 I0.0 J0.9125
G0 Z-0.5
G3 X1.6768 Y-0.0556 I-0.8749 J-0.2591
G1 X1.5084 Y0.2362
G1 F40.0 Z-0.6875
G1 F80.0 X0.7902 Y1.48
G1 F40.0 Z-0.75
G3 F80.0 X-0.6619 Y1.6519 I-0.7902 J-0.4563
G0 Z-0.5
G3 X-0.7902 Y1.48 I0.6619 J-0.6282
G1 X-0.9587 Y1.1882
G1 F40.0 Z-0.75
G1 F80.0 X-1.6768 Y-0.0556
G3 X-1.0997 Y-1.3991 I0.7902 J-0.4563
G0 Z-0.5
G3 X-0.8866 Y-1.4244 I0.2131 J0.8873
G1 X-0.5497
G1 F40.0 Z-0.75
G1 F80.0 X0.8866
G3 X1.7615 Y-0.2528 I0.0 J0.9125
G0 Z-0.5
G3 X1.6768 Y-0.0556 I-0.8749 J-0.2591
G1 X1.5084 Y0.2362
G1 F40.0 Z-0.75
G1 F80.0 X0.7902 Y1.48
G1 F40.0 Z-0.8
G3 F80.0 X-0.6619 Y1.6519 I-0.7902 J-0.4563
G0 Z-0.5
G3 X-0.7902 Y1.48 I0.6619 J-0.6282
G1 X-0.9587 Y1.1882
G1 F40.0 Z-0.8
G1 F80.0 X-1.6768 Y-0.0556
G3 X-1.0997 Y-1.3991 I0.7902 J-0.4563
G0 Z-0.5
G3 X-0.8866 Y-1.4244 I0.2131 J0.8873
G1 X-0.5497
G1 F40.0 Z-0.8
G1 F80.0 X0.8866
G3 X1.7615 Y-0.2528 I0.0 J0.9125
G0 Z-0.5
G3 X1.6768 Y-0.0556 I-0.8749 J-0.2591
G1 X1.5084 Y0.2362
G1 F40.0 Z-0.8
G1 F80.0 X0.7902 Y1.48
G0 Z0.125
M5
M30
