( Made using CamBam - http://www.cambam.co.uk )
( motor_holder_base 3/5/2017 11:08:33 AM )
( T4 : 0.25 )
G20 G90 G64 G40
G0 Z0.125
( T4 : 0.25 )
T4 M6
( Drill2 )
G17
M3 S1000
G0 X0.0 Y0.375
G0 Z0.125
G0 X0.0005 Y0.375
G1 F30.0 Z0.0
G2 F60.0 X-0.0003 Y0.3746 Z-0.0208 I-0.0005 J0.0
G2 Y0.3754 Z-0.0417 I0.0003 J0.0004
G2 X0.0005 Y0.375 Z-0.0625 I0.0003 J-0.0004
G2 X-0.0003 Y0.3746 Z-0.0833 I-0.0005 J0.0
G2 Y0.3754 Z-0.1042 I0.0003 J0.0004
G2 X0.0005 Y0.375 Z-0.125 I0.0003 J-0.0004
G2 X-0.0002 Y0.3746 Z-0.1458 I-0.0005 J0.0
G2 X-0.0003 Y0.3754 Z-0.1667 I0.0003 J0.0004
G2 X0.0005 Y0.375 Z-0.1875 I0.0003 J-0.0004
G2 X-0.0003 Y0.3746 Z-0.2083 I-0.0005 J0.0
G2 Y0.3754 Z-0.2292 I0.0003 J0.0004
G2 X0.0005 Y0.375 Z-0.25 I0.0002 J-0.0004
G2 X-0.0003 Y0.3746 Z-0.2708 I-0.0005 J0.0
G2 X-0.0002 Y0.3754 Z-0.2917 I0.0003 J0.0004
G2 X0.0005 Y0.375 Z-0.3125 I0.0002 J-0.0004
G2 X-0.0003 Y0.3746 Z-0.3333 I-0.0005 J0.0
G2 Y0.3754 Z-0.3542 I0.0003 J0.0004
G2 X0.0005 Y0.375 Z-0.375 I0.0003 J-0.0004
G2 X-0.0002 Y0.3746 Z-0.3958 I-0.0005 J0.0
G2 X-0.0003 Y0.3754 Z-0.4167 I0.0002 J0.0004
G2 X0.0005 Y0.375 Z-0.4375 I0.0003 J-0.0004
G2 X-0.0002 Y0.3746 Z-0.4583 I-0.0005 J0.0
G2 X-0.0003 Y0.3754 Z-0.4792 I0.0002 J0.0004
G2 X0.0005 Y0.375 Z-0.5 I0.0003 J-0.0004
G2 X-0.0002 Y0.3746 Z-0.5208 I-0.0005 J0.0
G2 X-0.0003 Y0.3754 Z-0.5417 I0.0002 J0.0004
G2 X0.0005 Y0.375 Z-0.5625 I0.0003 J-0.0004
G2 X-0.0002 Y0.3746 Z-0.5833 I-0.0005 J0.0
G2 X-0.0003 Y0.3754 Z-0.6042 I0.0002 J0.0004
G2 X0.0005 Y0.375 Z-0.625 I0.0003 J-0.0004
G2 X-0.0002 Y0.3746 Z-0.6458 I-0.0005 J0.0
G2 X-0.0003 Y0.3754 Z-0.6667 I0.0002 J0.0004
G2 X0.0005 Y0.375 Z-0.6875 I0.0003 J-0.0004
G2 X-0.0002 Y0.3746 Z-0.7083 I-0.0005 J0.0
G2 X-0.0003 Y0.3754 Z-0.7292 I0.0002 J0.0004
G2 X0.0005 Y0.375 Z-0.75 I0.0003 J-0.0004
G2 X-0.0002 Y0.3746 Z-0.7708 I-0.0005 J0.0
G2 X-0.0003 Y0.3754 Z-0.7917 I0.0002 J0.0004
G2 X0.0002 Y0.3755 Z-0.8 I0.0002 J-0.0004
G2 X0.0003 Y0.3746 I-0.0002 J-0.0005
G2 X-0.0005 Y0.3749 I-0.0003 J0.0004
G2 X0.0002 Y0.3755 I0.0005 J0.0001
G0 Z0.125
G0 X0.2895 Y0.0
G1 F30.0 Z0.0
G2 F60.0 X0.2888 Y-0.0004 Z-0.0208 I-0.0005 J0.0
G2 Y0.0004 Z-0.0417 I0.0002 J0.0004
G2 X0.2895 Y0.0 Z-0.0625 I0.0003 J-0.0004
G2 X0.2888 Y-0.0004 Z-0.0833 I-0.0005 J0.0
G2 Y0.0004 Z-0.1042 I0.0002 J0.0004
G2 X0.2895 Y0.0 Z-0.125 I0.0003 J-0.0004
G2 X0.2888 Y-0.0004 Z-0.1458 I-0.0005 J0.0
G2 Y0.0004 Z-0.1667 I0.0002 J0.0004
G2 X0.2895 Y0.0 Z-0.1875 I0.0003 J-0.0004
G2 X0.2888 Y-0.0004 Z-0.2083 I-0.0005 J0.0
G2 Y0.0004 Z-0.2292 I0.0003 J0.0004
G2 X0.2895 Y0.0 Z-0.25 I0.0002 J-0.0004
G2 X0.2888 Y-0.0004 Z-0.2708 I-0.0005 J0.0
G2 Y0.0004 Z-0.2917 I0.0003 J0.0004
G2 X0.2895 Y0.0 Z-0.3125 I0.0002 J-0.0004
G2 X0.2888 Y-0.0004 Z-0.3333 I-0.0005 J0.0
G2 Y0.0004 Z-0.3542 I0.0003 J0.0004
G2 X0.2895 Y0.0 Z-0.375 I0.0002 J-0.0004
G2 X0.2888 Y-0.0004 Z-0.3958 I-0.0005 J0.0
G2 Y0.0004 Z-0.4167 I0.0002 J0.0004
G2 X0.2895 Y0.0 Z-0.4375 I0.0003 J-0.0004
G2 X0.2888 Y-0.0004 Z-0.4583 I-0.0005 J0.0
G2 Y0.0004 Z-0.4792 I0.0002 J0.0004
G2 X0.2895 Y0.0 Z-0.5 I0.0003 J-0.0004
G2 X0.2888 Y-0.0004 Z-0.5208 I-0.0005 J0.0
G2 Y0.0004 Z-0.5417 I0.0002 J0.0004
G2 X0.2895 Y0.0 Z-0.5625 I0.0003 J-0.0004
G2 X0.2888 Y-0.0004 Z-0.5833 I-0.0005 J0.0
G2 Y0.0004 Z-0.6042 I0.0002 J0.0004
G2 X0.2895 Y0.0 Z-0.625 I0.0003 J-0.0004
G2 X0.2888 Y-0.0004 Z-0.6458 I-0.0005 J0.0
G2 Y0.0004 Z-0.6667 I0.0002 J0.0004
G2 X0.2895 Y0.0 Z-0.6875 I0.0003 J-0.0004
G2 X0.2888 Y-0.0004 Z-0.7083 I-0.0005 J0.0
G2 Y0.0004 Z-0.7292 I0.0002 J0.0004
G2 X0.2895 Y0.0 Z-0.75 I0.0003 J-0.0004
G2 X0.2888 Y-0.0004 Z-0.7708 I-0.0005 J0.0
G2 Y0.0004 Z-0.7917 I0.0002 J0.0004
G2 X0.2892 Y0.0005 Z-0.8 I0.0003 J-0.0004
G2 X0.2893 Y-0.0004 I-0.0002 J-0.0005
G2 X0.2885 Y-0.0001 I-0.0003 J0.0004
G2 X0.2892 Y0.0005 I0.0005 J0.0001
G0 Z0.125
G0 X0.0005 Y-0.375
G1 F30.0 Z0.0
G2 F60.0 X-0.0003 Y-0.3754 Z-0.0208 I-0.0005 J0.0
G2 Y-0.3746 Z-0.0417 I0.0003 J0.0004
G2 X0.0005 Y-0.375 Z-0.0625 I0.0003 J-0.0004
G2 X-0.0003 Y-0.3754 Z-0.0833 I-0.0005 J0.0
G2 Y-0.3746 Z-0.1042 I0.0003 J0.0004
G2 X0.0005 Y-0.375 Z-0.125 I0.0003 J-0.0004
G2 X-0.0002 Y-0.3754 Z-0.1458 I-0.0005 J0.0
G2 X-0.0003 Y-0.3746 Z-0.1667 I0.0003 J0.0004
G2 X0.0005 Y-0.375 Z-0.1875 I0.0003 J-0.0004
G2 X-0.0003 Y-0.3754 Z-0.2083 I-0.0005 J0.0
G2 Y-0.3746 Z-0.2292 I0.0003 J0.0004
G2 X0.0005 Y-0.375 Z-0.25 I0.0002 J-0.0004
G2 X-0.0003 Y-0.3754 Z-0.2708 I-0.0005 J0.0
G2 X-0.0002 Y-0.3746 Z-0.2917 I0.0003 J0.0004
G2 X0.0005 Y-0.375 Z-0.3125 I0.0002 J-0.0004
G2 X-0.0003 Y-0.3754 Z-0.3333 I-0.0005 J0.0
G2 Y-0.3746 Z-0.3542 I0.0003 J0.0004
G2 X0.0005 Y-0.375 Z-0.375 I0.0003 J-0.0004
G2 X-0.0002 Y-0.3754 Z-0.3958 I-0.0005 J0.0
G2 X-0.0003 Y-0.3746 Z-0.4167 I0.0002 J0.0004
G2 X0.0005 Y-0.375 Z-0.4375 I0.0003 J-0.0004
G2 X-0.0002 Y-0.3754 Z-0.4583 I-0.0005 J0.0
G2 X-0.0003 Y-0.3746 Z-0.4792 I0.0002 J0.0004
G2 X0.0005 Y-0.375 Z-0.5 I0.0003 J-0.0004
G2 X-0.0002 Y-0.3754 Z-0.5208 I-0.0005 J0.0
G2 X-0.0003 Y-0.3746 Z-0.5417 I0.0002 J0.0004
G2 X0.0005 Y-0.375 Z-0.5625 I0.0003 J-0.0004
G2 X-0.0002 Y-0.3754 Z-0.5833 I-0.0005 J0.0
G2 X-0.0003 Y-0.3746 Z-0.6042 I0.0002 J0.0004
G2 X0.0005 Y-0.375 Z-0.625 I0.0003 J-0.0004
G2 X-0.0002 Y-0.3754 Z-0.6458 I-0.0005 J0.0
G2 X-0.0003 Y-0.3746 Z-0.6667 I0.0002 J0.0004
G2 X0.0005 Y-0.375 Z-0.6875 I0.0003 J-0.0004
G2 X-0.0002 Y-0.3754 Z-0.7083 I-0.0005 J0.0
G2 X-0.0003 Y-0.3746 Z-0.7292 I0.0002 J0.0004
G2 X0.0005 Y-0.375 Z-0.75 I0.0003 J-0.0004
G2 X-0.0002 Y-0.3754 Z-0.7708 I-0.0005 J0.0
G2 X-0.0003 Y-0.3746 Z-0.7917 I0.0002 J0.0004
G2 X0.0002 Y-0.3745 Z-0.8 I0.0002 J-0.0004
G2 X0.0003 Y-0.3754 I-0.0002 J-0.0005
G2 X-0.0005 Y-0.3751 I-0.0003 J0.0004
G2 X0.0002 Y-0.3745 I0.0005 J0.0001
G0 Z0.125
G0 X-0.2885 Y0.0
G1 F30.0 Z0.0
G2 F60.0 X-0.2893 Y-0.0004 Z-0.0208 I-0.0005 J0.0
G2 Y0.0004 Z-0.0417 I0.0002 J0.0004
G2 X-0.2885 Y0.0 Z-0.0625 I0.0003 J-0.0004
G2 X-0.2893 Y-0.0004 Z-0.0833 I-0.0005 J0.0
G2 Y0.0004 Z-0.1042 I0.0002 J0.0004
G2 X-0.2885 Y0.0 Z-0.125 I0.0003 J-0.0004
G2 X-0.2893 Y-0.0004 Z-0.1458 I-0.0005 J0.0
G2 Y0.0004 Z-0.1667 I0.0002 J0.0004
G2 X-0.2885 Y0.0 Z-0.1875 I0.0003 J-0.0004
G2 X-0.2893 Y-0.0004 Z-0.2083 I-0.0005 J0.0
G2 Y0.0004 Z-0.2292 I0.0003 J0.0004
G2 X-0.2885 Y0.0 Z-0.25 I0.0002 J-0.0004
G2 X-0.2893 Y-0.0004 Z-0.2708 I-0.0005 J0.0
G2 Y0.0004 Z-0.2917 I0.0003 J0.0004
G2 X-0.2885 Y0.0 Z-0.3125 I0.0002 J-0.0004
G2 X-0.2893 Y-0.0004 Z-0.3333 I-0.0005 J0.0
G2 Y0.0004 Z-0.3542 I0.0003 J0.0004
G2 X-0.2885 Y0.0 Z-0.375 I0.0002 J-0.0004
G2 X-0.2893 Y-0.0004 Z-0.3958 I-0.0005 J0.0
G2 Y0.0004 Z-0.4167 I0.0002 J0.0004
G2 X-0.2885 Y0.0 Z-0.4375 I0.0003 J-0.0004
G2 X-0.2893 Y-0.0004 Z-0.4583 I-0.0005 J0.0
G2 Y0.0004 Z-0.4792 I0.0002 J0.0004
G2 X-0.2885 Y0.0 Z-0.5 I0.0003 J-0.0004
G2 X-0.2893 Y-0.0004 Z-0.5208 I-0.0005 J0.0
G2 Y0.0004 Z-0.5417 I0.0002 J0.0004
G2 X-0.2885 Y0.0 Z-0.5625 I0.0003 J-0.0004
G2 X-0.2893 Y-0.0004 Z-0.5833 I-0.0005 J0.0
G2 Y0.0004 Z-0.6042 I0.0002 J0.0004
G2 X-0.2885 Y0.0 Z-0.625 I0.0003 J-0.0004
G2 X-0.2893 Y-0.0004 Z-0.6458 I-0.0005 J0.0
G2 Y0.0004 Z-0.6667 I0.0002 J0.0004
G2 X-0.2885 Y0.0 Z-0.6875 I0.0003 J-0.0004
G2 X-0.2893 Y-0.0004 Z-0.7083 I-0.0005 J0.0
G2 Y0.0004 Z-0.7292 I0.0002 J0.0004
G2 X-0.2885 Y0.0 Z-0.75 I0.0003 J-0.0004
G2 X-0.2893 Y-0.0004 Z-0.7708 I-0.0005 J0.0
G2 Y0.0004 Z-0.7917 I0.0002 J0.0004
G2 X-0.2888 Y0.0005 Z-0.8 I0.0003 J-0.0004
G2 X-0.2887 Y-0.0004 I-0.0002 J-0.0005
G2 X-0.2895 Y-0.0001 I-0.0003 J0.0004
G2 X-0.2888 Y0.0005 I0.0005 J0.0001
( Drill1 )
S1000
G0 Z0.125
G0 X-1.1367 Y-0.6563
G0 Z0.125
G0 X-1.1054 Y-0.6563
G1 F40.0 Z0.0
G2 F80.0 X-1.1523 Y-0.6833 Z-0.0208 I-0.0313 J0.0
G2 Y-0.6292 Z-0.0417 I0.0156 J0.0271
G2 X-1.1054 Y-0.6563 Z-0.0625 I0.0156 J-0.0271
G2 X-1.1523 Y-0.6833 Z-0.0833 I-0.0313 J0.0
G2 Y-0.6292 Z-0.1042 I0.0156 J0.0271
G2 X-1.1054 Y-0.6563 Z-0.125 I0.0156 J-0.0271
G2 X-1.1523 Y-0.6833 Z-0.1458 I-0.0313 J0.0
G2 Y-0.6292 Z-0.1667 I0.0156 J0.0271
G2 X-1.1054 Y-0.6563 Z-0.1875 I0.0156 J-0.0271
G2 X-1.1523 Y-0.6833 Z-0.2083 I-0.0313 J0.0
G2 Y-0.6292 Z-0.2292 I0.0156 J0.0271
G2 X-1.1054 Y-0.6563 Z-0.25 I0.0156 J-0.0271
G2 X-1.1523 Y-0.6833 Z-0.2708 I-0.0313 J0.0
G2 Y-0.6292 Z-0.2917 I0.0156 J0.0271
G2 X-1.1054 Y-0.6563 Z-0.3125 I0.0156 J-0.0271
G2 X-1.1523 Y-0.6833 Z-0.3333 I-0.0313 J0.0
G2 Y-0.6292 Z-0.3542 I0.0156 J0.0271
G2 X-1.1054 Y-0.6563 Z-0.375 I0.0156 J-0.0271
G2 X-1.1523 Y-0.6833 Z-0.3958 I-0.0313 J0.0
G2 Y-0.6292 Z-0.4167 I0.0156 J0.0271
G2 X-1.1054 Y-0.6563 Z-0.4375 I0.0156 J-0.0271
G2 X-1.1523 Y-0.6833 Z-0.4583 I-0.0313 J0.0
G2 Y-0.6292 Z-0.4792 I0.0156 J0.0271
G2 X-1.1054 Y-0.6562 Z-0.5 I0.0156 J-0.0271
G2 X-1.1523 Y-0.6833 Z-0.5208 I-0.0313 J0.0
G2 Y-0.6292 Z-0.5417 I0.0156 J0.0271
G2 X-1.1054 Y-0.6562 Z-0.5625 I0.0156 J-0.0271
G2 X-1.1523 Y-0.6833 Z-0.5833 I-0.0313 J0.0
G2 Y-0.6292 Z-0.6042 I0.0156 J0.0271
G2 X-1.1054 Y-0.6562 Z-0.625 I0.0156 J-0.0271
G2 X-1.1523 Y-0.6833 Z-0.6458 I-0.0313 J0.0
G2 Y-0.6292 Z-0.6667 I0.0156 J0.0271
G2 X-1.1054 Y-0.6562 Z-0.6875 I0.0156 J-0.0271
G2 X-1.1523 Y-0.6833 Z-0.7083 I-0.0313 J0.0
G2 Y-0.6292 Z-0.7292 I0.0156 J0.0271
G2 X-1.1054 Y-0.6562 Z-0.75 I0.0156 J-0.0271
G2 X-1.1523 Y-0.6833 Z-0.7708 I-0.0313 J0.0
G2 Y-0.6292 Z-0.7917 I0.0156 J0.0271
G2 X-1.127 Y-0.6265 Z-0.8 I0.0156 J-0.0271
G2 X-1.1157 Y-0.6795 I-0.0097 J-0.0297
G2 X-1.1672 Y-0.6627 I-0.0209 J0.0232
G2 X-1.127 Y-0.6265 I0.0306 J0.0065
G0 Z0.125
G0 X0.0313 Y1.3125
G1 F40.0 Z0.0
G2 F80.0 X-0.0156 Y1.2854 Z-0.0208 I-0.0313 J0.0
G2 Y1.3396 Z-0.0417 I0.0156 J0.0271
G2 X0.0313 Y1.3125 Z-0.0625 I0.0156 J-0.0271
G2 X-0.0156 Y1.2854 Z-0.0833 I-0.0313 J0.0
G2 Y1.3396 Z-0.1042 I0.0156 J0.0271
G2 X0.0313 Y1.3125 Z-0.125 I0.0156 J-0.0271
G2 X-0.0156 Y1.2854 Z-0.1458 I-0.0313 J0.0
G2 Y1.3396 Z-0.1667 I0.0156 J0.0271
G2 X0.0313 Y1.3125 Z-0.1875 I0.0156 J-0.0271
G2 X-0.0156 Y1.2854 Z-0.2083 I-0.0313 J0.0
G2 Y1.3396 Z-0.2292 I0.0156 J0.0271
G2 X0.0313 Y1.3125 Z-0.25 I0.0156 J-0.0271
G2 X-0.0156 Y1.2854 Z-0.2708 I-0.0313 J0.0
G2 Y1.3396 Z-0.2917 I0.0156 J0.0271
G2 X0.0313 Y1.3125 Z-0.3125 I0.0156 J-0.0271
G2 X-0.0156 Y1.2854 Z-0.3333 I-0.0312 J0.0
G2 Y1.3396 Z-0.3542 I0.0156 J0.0271
G2 X0.0313 Y1.3125 Z-0.375 I0.0156 J-0.0271
G2 X-0.0156 Y1.2854 Z-0.3958 I-0.0313 J0.0
G2 Y1.3396 Z-0.4167 I0.0156 J0.0271
G2 X0.0313 Y1.3125 Z-0.4375 I0.0156 J-0.0271
G2 X-0.0156 Y1.2854 Z-0.4583 I-0.0312 J0.0
G2 Y1.3396 Z-0.4792 I0.0156 J0.0271
G2 X0.0313 Y1.3125 Z-0.5 I0.0156 J-0.0271
G2 X-0.0156 Y1.2854 Z-0.5208 I-0.0313 J0.0
G2 Y1.3396 Z-0.5417 I0.0156 J0.0271
G2 X0.0313 Y1.3125 Z-0.5625 I0.0156 J-0.0271
G2 X-0.0156 Y1.2854 Z-0.5833 I-0.0312 J0.0
G2 Y1.3396 Z-0.6042 I0.0156 J0.0271
G2 X0.0313 Y1.3125 Z-0.625 I0.0156 J-0.0271
G2 X-0.0156 Y1.2854 Z-0.6458 I-0.0313 J0.0
G2 Y1.3396 Z-0.6667 I0.0156 J0.0271
G2 X0.0313 Y1.3125 Z-0.6875 I0.0156 J-0.0271
G2 X-0.0156 Y1.2854 Z-0.7083 I-0.0313 J0.0
G2 Y1.3396 Z-0.7292 I0.0156 J0.0271
G2 X0.0313 Y1.3125 Z-0.75 I0.0156 J-0.0271
G2 X-0.0156 Y1.2854 Z-0.7708 I-0.0313 J0.0
G2 Y1.3396 Z-0.7917 I0.0156 J0.0271
G2 X0.0097 Y1.3422 Z-0.8 I0.0156 J-0.0271
G2 X0.0209 Y1.2893 I-0.0097 J-0.0297
G2 X-0.0306 Y1.306 I-0.0209 J0.0232
G2 X0.0097 Y1.3422 I0.0306 J0.0065
G0 Z0.125
G0 X1.1679 Y-0.6563
G1 F40.0 Z0.0
G2 F80.0 X1.121 Y-0.6833 Z-0.0208 I-0.0313 J0.0
G2 Y-0.6292 Z-0.0417 I0.0156 J0.0271
G2 X1.1679 Y-0.6563 Z-0.0625 I0.0156 J-0.0271
G2 X1.121 Y-0.6833 Z-0.0833 I-0.0313 J0.0
G2 Y-0.6292 Z-0.1042 I0.0156 J0.0271
G2 X1.1679 Y-0.6563 Z-0.125 I0.0156 J-0.0271
G2 X1.121 Y-0.6833 Z-0.1458 I-0.0313 J0.0
G2 Y-0.6292 Z-0.1667 I0.0156 J0.0271
G2 X1.1679 Y-0.6563 Z-0.1875 I0.0156 J-0.0271
G2 X1.121 Y-0.6833 Z-0.2083 I-0.0313 J0.0
G2 Y-0.6292 Z-0.2292 I0.0156 J0.0271
G2 X1.1679 Y-0.6563 Z-0.25 I0.0156 J-0.0271
G2 X1.121 Y-0.6833 Z-0.2708 I-0.0313 J0.0
G2 Y-0.6292 Z-0.2917 I0.0156 J0.0271
G2 X1.1679 Y-0.6563 Z-0.3125 I0.0156 J-0.0271
G2 X1.121 Y-0.6833 Z-0.3333 I-0.0313 J0.0
G2 Y-0.6292 Z-0.3542 I0.0156 J0.0271
G2 X1.1679 Y-0.6563 Z-0.375 I0.0156 J-0.0271
G2 X1.121 Y-0.6833 Z-0.3958 I-0.0313 J0.0
G2 Y-0.6292 Z-0.4167 I0.0156 J0.0271
G2 X1.1679 Y-0.6563 Z-0.4375 I0.0156 J-0.0271
G2 X1.121 Y-0.6833 Z-0.4583 I-0.0313 J0.0
G2 Y-0.6292 Z-0.4792 I0.0156 J0.0271
G2 X1.1679 Y-0.6563 Z-0.5 I0.0156 J-0.0271
G2 X1.121 Y-0.6833 Z-0.5208 I-0.0313 J0.0
G2 Y-0.6292 Z-0.5417 I0.0156 J0.0271
G2 X1.1679 Y-0.6563 Z-0.5625 I0.0156 J-0.0271
G2 X1.121 Y-0.6833 Z-0.5833 I-0.0313 J0.0
G2 Y-0.6292 Z-0.6042 I0.0156 J0.0271
G2 X1.1679 Y-0.6563 Z-0.625 I0.0156 J-0.0271
G2 X1.121 Y-0.6833 Z-0.6458 I-0.0313 J0.0
G2 Y-0.6292 Z-0.6667 I0.0156 J0.0271
G2 X1.1679 Y-0.6563 Z-0.6875 I0.0156 J-0.0271
G2 X1.121 Y-0.6833 Z-0.7083 I-0.0313 J0.0
G2 Y-0.6292 Z-0.7292 I0.0156 J0.0271
G2 X1.1679 Y-0.6563 Z-0.75 I0.0156 J-0.0271
G2 X1.121 Y-0.6833 Z-0.7708 I-0.0313 J0.0
G2 Y-0.6292 Z-0.7917 I0.0156 J0.0271
G2 X1.1463 Y-0.6265 Z-0.8 I0.0156 J-0.0271
G2 X1.1576 Y-0.6795 I-0.0097 J-0.0297
G2 X1.1061 Y-0.6627 I-0.0209 J0.0232
G2 X1.1463 Y-0.6265 I0.0306 J0.0065
( Profile1 )
S1000
G0 Z0.125
G0 X-1.5117 Y-0.0067
G1 F40.0 Z-0.0625
G3 F80.0 X-0.7617 Y-1.3058 I0.375 J-0.6495
G3 X-0.7496 Y-1.2983 I-0.125 J0.2165
G2 X0.7496 I0.7496 J-1.1432
G3 X0.7617 Y-1.3058 I0.1371 J0.2091
G3 X1.5117 Y-0.0067 I0.375 J0.6495
G3 X1.4992 Y0.0 I-0.125 J-0.2165
G2 X0.7496 Y1.2983 I0.6153 J1.2208
G3 X0.75 Y1.3125 I-0.2496 J0.0142
G3 X-0.75 I-0.75 J0.0
G3 X-0.7496 Y1.2983 I0.25 J0.0
G2 X-1.4992 Y0.0 I-1.3648 J-0.0775
G3 X-1.5117 Y-0.0067 I0.1125 J-0.2232
G1 F40.0 Z-0.125
G3 F80.0 X-0.7617 Y-1.3058 I0.375 J-0.6495
G3 X-0.7496 Y-1.2983 I-0.125 J0.2165
G2 X0.7496 I0.7496 J-1.1432
G3 X0.7617 Y-1.3058 I0.1371 J0.2091
G3 X1.5117 Y-0.0067 I0.375 J0.6495
G3 X1.4992 Y0.0 I-0.125 J-0.2165
G2 X0.7496 Y1.2983 I0.6153 J1.2208
G3 X0.75 Y1.3125 I-0.2496 J0.0142
G3 X-0.75 I-0.75 J0.0
G3 X-0.7496 Y1.2983 I0.25 J0.0
G2 X-1.4992 Y0.0 I-1.3648 J-0.0775
G3 X-1.5117 Y-0.0067 I0.1125 J-0.2232
G1 F40.0 Z-0.1875
G3 F80.0 X-0.7617 Y-1.3058 I0.375 J-0.6495
G3 X-0.7496 Y-1.2983 I-0.125 J0.2165
G2 X0.7496 I0.7496 J-1.1432
G3 X0.7617 Y-1.3058 I0.1371 J0.2091
G3 X1.5117 Y-0.0067 I0.375 J0.6495
G3 X1.4992 Y0.0 I-0.125 J-0.2165
G2 X0.7496 Y1.2983 I0.6153 J1.2208
G3 X0.75 Y1.3125 I-0.2496 J0.0142
G3 X-0.75 I-0.75 J0.0
G3 X-0.7496 Y1.2983 I0.25 J0.0
G2 X-1.4992 Y0.0 I-1.3648 J-0.0775
G3 X-1.5117 Y-0.0067 I0.1125 J-0.2232
G1 F40.0 Z-0.25
G3 F80.0 X-0.7617 Y-1.3058 I0.375 J-0.6495
G3 X-0.7496 Y-1.2983 I-0.125 J0.2165
G2 X0.7496 I0.7496 J-1.1432
G3 X0.7617 Y-1.3058 I0.1371 J0.2091
G3 X1.5117 Y-0.0067 I0.375 J0.6495
G3 X1.4992 Y0.0 I-0.125 J-0.2165
G2 X0.7496 Y1.2983 I0.6153 J1.2208
G3 X0.75 Y1.3125 I-0.2496 J0.0142
G3 X-0.75 I-0.75 J0.0
G3 X-0.7496 Y1.2983 I0.25 J0.0
G2 X-1.4992 Y0.0 I-1.3648 J-0.0775
G3 X-1.5117 Y-0.0067 I0.1125 J-0.2232
G1 F40.0 Z-0.3125
G3 F80.0 X-0.7617 Y-1.3058 I0.375 J-0.6495
G3 X-0.7496 Y-1.2983 I-0.125 J0.2165
G2 X0.7496 I0.7496 J-1.1432
G3 X0.7617 Y-1.3058 I0.1371 J0.2091
G3 X1.5117 Y-0.0067 I0.375 J0.6495
G3 X1.4992 Y0.0 I-0.125 J-0.2165
G2 X0.7496 Y1.2983 I0.6153 J1.2208
G3 X0.75 Y1.3125 I-0.2496 J0.0142
G3 X-0.75 I-0.75 J0.0
G3 X-0.7496 Y1.2983 I0.25 J0.0
G2 X-1.4992 Y0.0 I-1.3648 J-0.0775
G3 X-1.5117 Y-0.0067 I0.1125 J-0.2232
G1 F40.0 Z-0.375
G3 F80.0 X-0.7617 Y-1.3058 I0.375 J-0.6495
G3 X-0.7496 Y-1.2983 I-0.125 J0.2165
G2 X0.7496 I0.7496 J-1.1432
G3 X0.7617 Y-1.3058 I0.1371 J0.2091
G3 X1.5117 Y-0.0067 I0.375 J0.6495
G3 X1.4992 Y0.0 I-0.125 J-0.2165
G2 X0.7496 Y1.2983 I0.6153 J1.2208
G3 X0.75 Y1.3125 I-0.2496 J0.0142
G3 X-0.75 I-0.75 J0.0
G3 X-0.7496 Y1.2983 I0.25 J0.0
G2 X-1.4992 Y0.0 I-1.3648 J-0.0775
G3 X-1.5117 Y-0.0067 I0.1125 J-0.2232
G1 F40.0 Z-0.4375
G3 F80.0 X-1.2105 Y-1.4026 I0.375 J-0.6495
G0 Z-0.4
G3 X-0.7617 Y-1.3058 I0.0738 J0.7464
G3 X-0.7496 Y-1.2983 I-0.125 J0.2165
G2 X-0.5895 Y-1.2081 I0.7496 J-1.1432
G1 F40.0 Z-0.4375
G2 F80.0 X0.7496 Y-1.2983 I0.5895 J-1.2334
G3 X0.7617 Y-1.3058 I0.1371 J0.2091
G3 X1.8199 Y-0.347 I0.375 J0.6495
G0 Z-0.4
G3 X1.5117 Y-0.0067 I-0.6833 J-0.3093
G3 X1.4992 Y0.0 I-0.125 J-0.2165
G2 X1.341 Y0.0935 I0.6153 J1.2208
G1 F40.0 Z-0.4375
G2 F80.0 X0.7496 Y1.2983 I0.7734 J1.1272
G3 X0.75 Y1.3125 I-0.2496 J0.0142
G3 X-0.6095 Y1.7496 I-0.75 J0.0
G0 Z-0.4
G3 X-0.75 Y1.3125 I0.6095 J-0.4371
G3 X-0.7496 Y1.2983 I0.25 J0.0
G2 X-0.7515 Y1.1146 I-1.3648 J-0.0775
G1 F40.0 Z-0.4375
G2 F80.0 X-1.4992 Y0.0 I-1.3629 J0.1062
G3 X-1.5117 Y-0.0067 I0.1125 J-0.2232
G1 F40.0 Z-0.5
G3 F80.0 X-1.2105 Y-1.4026 I0.375 J-0.6495
G0 Z-0.4
G3 X-0.7617 Y-1.3058 I0.0738 J0.7464
G3 X-0.7496 Y-1.2983 I-0.125 J0.2165
G2 X-0.5895 Y-1.2081 I0.7496 J-1.1432
G1 F40.0 Z-0.5
G2 F80.0 X0.7496 Y-1.2983 I0.5895 J-1.2334
G3 X0.7617 Y-1.3058 I0.1371 J0.2091
G3 X1.8199 Y-0.347 I0.375 J0.6495
G0 Z-0.4
G3 X1.5117 Y-0.0067 I-0.6833 J-0.3093
G3 X1.4992 Y0.0 I-0.125 J-0.2165
G2 X1.341 Y0.0935 I0.6153 J1.2208
G1 F40.0 Z-0.5
G2 F80.0 X0.7496 Y1.2983 I0.7734 J1.1272
G3 X0.75 Y1.3125 I-0.2496 J0.0142
G3 X-0.6095 Y1.7496 I-0.75 J0.0
G0 Z-0.4
G3 X-0.75 Y1.3125 I0.6095 J-0.4371
G3 X-0.7496 Y1.2983 I0.25 J0.0
G2 X-0.7515 Y1.1146 I-1.3648 J-0.0775
G1 F40.0 Z-0.5
G2 F80.0 X-1.4992 Y0.0 I-1.3629 J0.1062
G3 X-1.5117 Y-0.0067 I0.1125 J-0.2232
G1 F40.0 Z-0.5625
G3 F80.0 X-1.2105 Y-1.4026 I0.375 J-0.6495
G0 Z-0.4
G3 X-0.7617 Y-1.3058 I0.0738 J0.7464
G3 X-0.7496 Y-1.2983 I-0.125 J0.2165
G2 X-0.5895 Y-1.2081 I0.7496 J-1.1432
G1 F40.0 Z-0.5625
G2 F80.0 X0.7496 Y-1.2983 I0.5895 J-1.2334
G3 X0.7617 Y-1.3058 I0.1371 J0.2091
G3 X1.8199 Y-0.347 I0.375 J0.6495
G0 Z-0.4
G3 X1.5117 Y-0.0067 I-0.6833 J-0.3093
G3 X1.4992 Y0.0 I-0.125 J-0.2165
G2 X1.341 Y0.0935 I0.6153 J1.2208
G1 F40.0 Z-0.5625
G2 F80.0 X0.7496 Y1.2983 I0.7734 J1.1272
G3 X0.75 Y1.3125 I-0.2496 J0.0142
G3 X-0.6095 Y1.7496 I-0.75 J0.0
G0 Z-0.4
G3 X-0.75 Y1.3125 I0.6095 J-0.4371
G3 X-0.7496 Y1.2983 I0.25 J0.0
G2 X-0.7515 Y1.1146 I-1.3648 J-0.0775
G1 F40.0 Z-0.5625
G2 F80.0 X-1.4992 Y0.0 I-1.3629 J0.1062
G3 X-1.5117 Y-0.0067 I0.1125 J-0.2232
G1 F40.0 Z-0.625
G3 F80.0 X-1.2105 Y-1.4026 I0.375 J-0.6495
G0 Z-0.4
G3 X-0.7617 Y-1.3058 I0.0738 J0.7464
G3 X-0.7496 Y-1.2983 I-0.125 J0.2165
G2 X-0.5895 Y-1.2081 I0.7496 J-1.1432
G1 F40.0 Z-0.625
G2 F80.0 X0.7496 Y-1.2983 I0.5895 J-1.2334
G3 X0.7617 Y-1.3058 I0.1371 J0.2091
G3 X1.8199 Y-0.347 I0.375 J0.6495
G0 Z-0.4
G3 X1.5117 Y-0.0067 I-0.6833 J-0.3093
G3 X1.4992 Y0.0 I-0.125 J-0.2165
G2 X1.341 Y0.0935 I0.6153 J1.2208
G1 F40.0 Z-0.625
G2 F80.0 X0.7496 Y1.2983 I0.7734 J1.1272
G3 X0.75 Y1.3125 I-0.2496 J0.0142
G3 X-0.6095 Y1.7496 I-0.75 J0.0
G0 Z-0.4
G3 X-0.75 Y1.3125 I0.6095 J-0.4371
G3 X-0.7496 Y1.2983 I0.25 J0.0
G2 X-0.7515 Y1.1146 I-1.3648 J-0.0775
G1 F40.0 Z-0.625
G2 F80.0 X-1.4992 Y0.0 I-1.3629 J0.1062
G3 X-1.5117 Y-0.0067 I0.1125 J-0.2232
G1 F40.0 Z-0.6875
G3 F80.0 X-1.2105 Y-1.4026 I0.375 J-0.6495
G0 Z-0.4
G3 X-0.7617 Y-1.3058 I0.0738 J0.7464
G3 X-0.7496 Y-1.2983 I-0.125 J0.2165
G2 X-0.5895 Y-1.2081 I0.7496 J-1.1432
G1 F40.0 Z-0.6875
G2 F80.0 X0.7496 Y-1.2983 I0.5895 J-1.2334
G3 X0.7617 Y-1.3058 I0.1371 J0.2091
G3 X1.8199 Y-0.347 I0.375 J0.6495
G0 Z-0.4
G3 X1.5117 Y-0.0067 I-0.6833 J-0.3093
G3 X1.4992 Y0.0 I-0.125 J-0.2165
G2 X1.341 Y0.0935 I0.6153 J1.2208
G1 F40.0 Z-0.6875
G2 F80.0 X0.7496 Y1.2983 I0.7734 J1.1272
G3 X0.75 Y1.3125 I-0.2496 J0.0142
G3 X-0.6095 Y1.7496 I-0.75 J0.0
G0 Z-0.4
G3 X-0.75 Y1.3125 I0.6095 J-0.4371
G3 X-0.7496 Y1.2983 I0.25 J0.0
G2 X-0.7515 Y1.1146 I-1.3648 J-0.0775
G1 F40.0 Z-0.6875
G2 F80.0 X-1.4992 Y0.0 I-1.3629 J0.1062
G3 X-1.5117 Y-0.0067 I0.1125 J-0.2232
G1 F40.0 Z-0.75
G3 F80.0 X-1.2105 Y-1.4026 I0.375 J-0.6495
G0 Z-0.4
G3 X-0.7617 Y-1.3058 I0.0738 J0.7464
G3 X-0.7496 Y-1.2983 I-0.125 J0.2165
G2 X-0.5895 Y-1.2081 I0.7496 J-1.1432
G1 F40.0 Z-0.75
G2 F80.0 X0.7496 Y-1.2983 I0.5895 J-1.2334
G3 X0.7617 Y-1.3058 I0.1371 J0.2091
G3 X1.8199 Y-0.347 I0.375 J0.6495
G0 Z-0.4
G3 X1.5117 Y-0.0067 I-0.6833 J-0.3093
G3 X1.4992 Y0.0 I-0.125 J-0.2165
G2 X1.341 Y0.0935 I0.6153 J1.2208
G1 F40.0 Z-0.75
G2 F80.0 X0.7496 Y1.2983 I0.7734 J1.1272
G3 X0.75 Y1.3125 I-0.2496 J0.0142
G3 X-0.6095 Y1.7496 I-0.75 J0.0
G0 Z-0.4
G3 X-0.75 Y1.3125 I0.6095 J-0.4371
G3 X-0.7496 Y1.2983 I0.25 J0.0
G2 X-0.7515 Y1.1146 I-1.3648 J-0.0775
G1 F40.0 Z-0.75
G2 F80.0 X-1.4992 Y0.0 I-1.3629 J0.1062
G3 X-1.5117 Y-0.0067 I0.1125 J-0.2232
G1 F40.0 Z-0.8
G3 F80.0 X-1.2105 Y-1.4026 I0.375 J-0.6495
G0 Z-0.4
G3 X-0.7617 Y-1.3058 I0.0738 J0.7464
G3 X-0.7496 Y-1.2983 I-0.125 J0.2165
G2 X-0.5895 Y-1.2081 I0.7496 J-1.1432
G1 F40.0 Z-0.8
G2 F80.0 X0.7496 Y-1.2983 I0.5895 J-1.2334
G3 X0.7617 Y-1.3058 I0.1371 J0.2091
G3 X1.8199 Y-0.347 I0.375 J0.6495
G0 Z-0.4
G3 X1.5117 Y-0.0067 I-0.6833 J-0.3093
G3 X1.4992 Y0.0 I-0.125 J-0.2165
G2 X1.341 Y0.0935 I0.6153 J1.2208
G1 F40.0 Z-0.8
G2 F80.0 X0.7496 Y1.2983 I0.7734 J1.1272
G3 X0.75 Y1.3125 I-0.2496 J0.0142
G3 X-0.6095 Y1.7496 I-0.75 J0.0
G0 Z-0.4
G3 X-0.75 Y1.3125 I0.6095 J-0.4371
G3 X-0.7496 Y1.2983 I0.25 J0.0
G2 X-0.7515 Y1.1146 I-1.3648 J-0.0775
G1 F40.0 Z-0.8
G2 F80.0 X-1.4992 Y0.0 I-1.3629 J0.1062
G3 X-1.5117 Y-0.0067 I0.1125 J-0.2232
G0 Z0.125
M5
M30
