( Made using CamBam - http://www.cambam.co.uk )
( motor_holder_grips_1.0 3/25/2017 7:26:27 AM )
( T4 : 0.25 )
G20 G90 G64 G40
G0 Z0.125
( T4 : 0.25 )
T4 M6
( Drill1 )
G17
M3 S1000
G0 X0.6133 Y0.6562
G0 Z0.125
G0 X0.6446 Y0.6562
G1 F40.0 Z0.0
G2 F80.0 X0.5977 Y0.6292 Z-0.0208 I-0.0313 J0.0
G2 Y0.6833 Z-0.0417 I0.0156 J0.0271
G2 X0.6446 Y0.6562 Z-0.0625 I0.0156 J-0.0271
G2 X0.5977 Y0.6292 Z-0.0833 I-0.0313 J0.0
G2 Y0.6833 Z-0.1042 I0.0156 J0.0271
G2 X0.6446 Y0.6562 Z-0.125 I0.0156 J-0.0271
G2 X0.5977 Y0.6292 Z-0.1458 I-0.0313 J0.0
G2 Y0.6833 Z-0.1667 I0.0156 J0.0271
G2 X0.6446 Y0.6562 Z-0.1875 I0.0156 J-0.0271
G2 X0.5977 Y0.6292 Z-0.2083 I-0.0313 J0.0
G2 Y0.6833 Z-0.2292 I0.0156 J0.0271
G2 X0.6446 Y0.6562 Z-0.25 I0.0156 J-0.0271
G2 X0.5977 Y0.6292 Z-0.2708 I-0.0313 J0.0
G2 Y0.6833 Z-0.2917 I0.0156 J0.0271
G2 X0.6446 Y0.6562 Z-0.3125 I0.0156 J-0.0271
G2 X0.5977 Y0.6292 Z-0.3333 I-0.0313 J0.0
G2 Y0.6833 Z-0.3542 I0.0156 J0.0271
G2 X0.6446 Y0.6562 Z-0.375 I0.0156 J-0.0271
G2 X0.5977 Y0.6292 Z-0.3958 I-0.0313 J0.0
G2 Y0.6833 Z-0.4167 I0.0156 J0.0271
G2 X0.6446 Y0.6562 Z-0.4375 I0.0156 J-0.0271
G2 X0.5977 Y0.6292 Z-0.4583 I-0.0313 J0.0
G2 Y0.6833 Z-0.4792 I0.0156 J0.0271
G2 X0.6446 Y0.6563 Z-0.5 I0.0156 J-0.0271
G2 X0.5977 Y0.6292 Z-0.5208 I-0.0313 J0.0
G2 Y0.6833 Z-0.5417 I0.0156 J0.0271
G2 X0.6446 Y0.6563 Z-0.5625 I0.0156 J-0.0271
G2 X0.5977 Y0.6292 Z-0.5833 I-0.0313 J0.0
G2 Y0.6833 Z-0.6042 I0.0156 J0.0271
G2 X0.6446 Y0.6563 Z-0.625 I0.0156 J-0.0271
G2 X0.5977 Y0.6292 Z-0.6458 I-0.0313 J0.0
G2 Y0.6833 Z-0.6667 I0.0156 J0.0271
G2 X0.6446 Y0.6563 Z-0.6875 I0.0156 J-0.0271
G2 X0.5977 Y0.6292 Z-0.7083 I-0.0313 J0.0
G2 Y0.6833 Z-0.7292 I0.0156 J0.0271
G2 X0.6446 Y0.6563 Z-0.75 I0.0156 J-0.0271
G2 X0.5977 Y0.6292 Z-0.7708 I-0.0313 J0.0
G2 Y0.6833 Z-0.7917 I0.0156 J0.0271
G2 X0.6446 Y0.6563 Z-0.8125 I0.0156 J-0.0271
G2 X0.5977 Y0.6292 Z-0.8333 I-0.0313 J0.0
G2 Y0.6833 Z-0.8542 I0.0156 J0.0271
G2 X0.6446 Y0.6563 Z-0.875 I0.0156 J-0.0271
G2 X0.5977 Y0.6292 Z-0.8958 I-0.0313 J0.0
G2 Y0.6833 Z-0.9167 I0.0156 J0.0271
G2 X0.6446 Y0.6563 Z-0.9375 I0.0156 J-0.0271
G2 X0.5977 Y0.6292 Z-0.9583 I-0.0313 J0.0
G2 Y0.6833 Z-0.9792 I0.0156 J0.0271
G2 X0.6446 Y0.6563 Z-1.0 I0.0156 J-0.0271
G2 X0.5977 Y0.6292 Z-1.0208 I-0.0313 J0.0
G2 Y0.6833 Z-1.0417 I0.0156 J0.0271
G2 X0.6446 Y0.6563 Z-1.0625 I0.0156 J-0.0271
G2 X0.5977 Y0.6292 Z-1.0833 I-0.0313 J0.0
G2 Y0.6833 Z-1.1042 I0.0156 J0.0271
G2 X0.6446 Y0.6563 Z-1.125 I0.0156 J-0.0271
G2 X0.5977 Y0.6292 I-0.0313 J0.0
G2 Y0.6833 I0.0156 J0.0271
G2 X0.6446 Y0.6563 I0.0156 J-0.0271
( Profile1 )
S1000
G0 Z0.125
G0 X0.5165 Y2.0247
G1 F40.0 Z-0.0625
G1 F80.0 X0.0732 Y1.2569
G3 X0.8634 Y-0.1119 I0.7902 J-0.4563
G1 X1.75
G3 X1.875 Y0.0131 I0.0 J0.125
G1 Y0.655
G3 X1.75 Y0.78 I-0.125 J0.0
G2 X1.2175 Y1.3125 I0.0 J0.5325
G2 X1.2888 Y1.5788 I0.5325 J0.0
G3 X1.2431 Y1.7495 I-0.1083 J0.0625
G1 X0.6872 Y2.0704
G3 X0.5165 Y2.0247 I-0.0625 J-0.1083
G1 F40.0 Z-0.125
G1 F80.0 X0.0732 Y1.2569
G3 X0.8634 Y-0.1119 I0.7902 J-0.4563
G1 X1.75
G3 X1.875 Y0.0131 I0.0 J0.125
G1 Y0.655
G3 X1.75 Y0.78 I-0.125 J0.0
G2 X1.2175 Y1.3125 I0.0 J0.5325
G2 X1.2888 Y1.5788 I0.5325 J0.0
G3 X1.2431 Y1.7495 I-0.1083 J0.0625
G1 X0.6872 Y2.0704
G3 X0.5165 Y2.0247 I-0.0625 J-0.1083
G1 F40.0 Z-0.1875
G1 F80.0 X0.0732 Y1.2569
G3 X0.8634 Y-0.1119 I0.7902 J-0.4563
G1 X1.75
G3 X1.875 Y0.0131 I0.0 J0.125
G1 Y0.655
G3 X1.75 Y0.78 I-0.125 J0.0
G2 X1.2175 Y1.3125 I0.0 J0.5325
G2 X1.2888 Y1.5788 I0.5325 J0.0
G3 X1.2431 Y1.7495 I-0.1083 J0.0625
G1 X0.6872 Y2.0704
G3 X0.5165 Y2.0247 I-0.0625 J-0.1083
G1 F40.0 Z-0.25
G1 F80.0 X0.0732 Y1.2569
G3 X0.8634 Y-0.1119 I0.7902 J-0.4563
G1 X1.75
G3 X1.875 Y0.0131 I0.0 J0.125
G1 Y0.655
G3 X1.75 Y0.78 I-0.125 J0.0
G2 X1.2175 Y1.3125 I0.0 J0.5325
G2 X1.2888 Y1.5788 I0.5325 J0.0
G3 X1.2431 Y1.7495 I-0.1083 J0.0625
G1 X0.6872 Y2.0704
G3 X0.5165 Y2.0247 I-0.0625 J-0.1083
G1 F40.0 Z-0.3125
G1 F80.0 X0.0732 Y1.2569
G3 X0.8634 Y-0.1119 I0.7902 J-0.4563
G1 X1.75
G3 X1.875 Y0.0131 I0.0 J0.125
G1 Y0.655
G3 X1.75 Y0.78 I-0.125 J0.0
G2 X1.2175 Y1.3125 I0.0 J0.5325
G2 X1.2888 Y1.5788 I0.5325 J0.0
G3 X1.2431 Y1.7495 I-0.1083 J0.0625
G1 X0.6872 Y2.0704
G3 X0.5165 Y2.0247 I-0.0625 J-0.1083
G1 F40.0 Z-0.375
G1 F80.0 X0.0732 Y1.2569
G3 X0.8634 Y-0.1119 I0.7902 J-0.4563
G1 X1.75
G3 X1.875 Y0.0131 I0.0 J0.125
G1 Y0.655
G3 X1.75 Y0.78 I-0.125 J0.0
G2 X1.2175 Y1.3125 I0.0 J0.5325
G2 X1.2888 Y1.5788 I0.5325 J0.0
G3 X1.2431 Y1.7495 I-0.1083 J0.0625
G1 X0.6872 Y2.0704
G3 X0.5165 Y2.0247 I-0.0625 J-0.1083
G1 F40.0 Z-0.4375
G1 F80.0 X0.0732 Y1.2569
G3 X0.8634 Y-0.1119 I0.7902 J-0.4563
G1 X1.75
G3 X1.875 Y0.0131 I0.0 J0.125
G1 Y0.655
G3 X1.75 Y0.78 I-0.125 J0.0
G2 X1.2175 Y1.3125 I0.0 J0.5325
G2 X1.2888 Y1.5788 I0.5325 J0.0
G3 X1.2431 Y1.7495 I-0.1083 J0.0625
G1 X0.6872 Y2.0704
G3 X0.5165 Y2.0247 I-0.0625 J-0.1083
G1 F40.0 Z-0.5
G1 F80.0 X0.0732 Y1.2569
G3 X0.8634 Y-0.1119 I0.7902 J-0.4563
G1 X1.75
G3 X1.875 Y0.0131 I0.0 J0.125
G1 Y0.655
G3 X1.75 Y0.78 I-0.125 J0.0
G2 X1.2175 Y1.3125 I0.0 J0.5325
G2 X1.2888 Y1.5788 I0.5325 J0.0
G3 X1.2431 Y1.7495 I-0.1083 J0.0625
G1 X0.6872 Y2.0704
G3 X0.5165 Y2.0247 I-0.0625 J-0.1083
G1 F40.0 Z-0.5625
G1 F80.0 X0.0732 Y1.2569
G3 X0.8634 Y-0.1119 I0.7902 J-0.4563
G1 X1.75
G3 X1.875 Y0.0131 I0.0 J0.125
G1 Y0.655
G3 X1.75 Y0.78 I-0.125 J0.0
G2 X1.2175 Y1.3125 I0.0 J0.5325
G2 X1.2888 Y1.5788 I0.5325 J0.0
G3 X1.2431 Y1.7495 I-0.1083 J0.0625
G1 X0.6872 Y2.0704
G3 X0.5165 Y2.0247 I-0.0625 J-0.1083
G1 F40.0 Z-0.625
G1 F80.0 X0.0732 Y1.2569
G3 X0.8634 Y-0.1119 I0.7902 J-0.4563
G1 X1.75
G3 X1.875 Y0.0131 I0.0 J0.125
G1 Y0.655
G3 X1.75 Y0.78 I-0.125 J0.0
G2 X1.2175 Y1.3125 I0.0 J0.5325
G2 X1.2888 Y1.5788 I0.5325 J0.0
G3 X1.2431 Y1.7495 I-0.1083 J0.0625
G1 X0.6872 Y2.0704
G3 X0.5165 Y2.0247 I-0.0625 J-0.1083
G1 F40.0 Z-0.6875
G1 F80.0 X0.0732 Y1.2569
G3 X0.8634 Y-0.1119 I0.7902 J-0.4563
G1 X1.75
G3 X1.875 Y0.0131 I0.0 J0.125
G1 Y0.655
G3 X1.75 Y0.78 I-0.125 J0.0
G2 X1.2175 Y1.3125 I0.0 J0.5325
G2 X1.2888 Y1.5788 I0.5325 J0.0
G3 X1.2431 Y1.7495 I-0.1083 J0.0625
G1 X0.6872 Y2.0704
G3 X0.5165 Y2.0247 I-0.0625 J-0.1083
G1 F40.0 Z-0.75
G1 F80.0 X0.0732 Y1.2569
G3 X0.8634 Y-0.1119 I0.7902 J-0.4563
G1 X1.75
G3 X1.875 Y0.0131 I0.0 J0.125
G1 Y0.655
G3 X1.75 Y0.78 I-0.125 J0.0
G2 X1.2175 Y1.3125 I0.0 J0.5325
G2 X1.2888 Y1.5788 I0.5325 J0.0
G3 X1.2431 Y1.7495 I-0.1083 J0.0625
G1 X0.6872 Y2.0704
G3 X0.5165 Y2.0247 I-0.0625 J-0.1083
G1 F40.0 Z-0.8125
G1 F80.0 X0.0732 Y1.2569
G3 X0.8634 Y-0.1119 I0.7902 J-0.4563
G1 X1.75
G3 X1.875 Y0.0131 I0.0 J0.125
G1 Y0.655
G3 X1.75 Y0.78 I-0.125 J0.0
G2 X1.2175 Y1.3125 I0.0 J0.5325
G2 X1.2888 Y1.5788 I0.5325 J0.0
G3 X1.2431 Y1.7495 I-0.1083 J0.0625
G1 X0.6872 Y2.0704
G3 X0.5165 Y2.0247 I-0.0625 J-0.1083
G1 F40.0 Z-0.875
G1 F80.0 X0.3935 Y1.8118
G0 Z-0.825
G1 X0.1185 Y1.3355
G1 F40.0 Z-0.875
G1 F80.0 X0.0732 Y1.2569
G3 X0.8634 Y-0.1119 I0.7902 J-0.4563
G1 X1.0372
G0 Z-0.825
G1 X1.5872
G1 F40.0 Z-0.875
G1 F80.0 X1.75
G3 X1.875 Y0.0131 I0.0 J0.125
G1 Y0.655
G3 X1.75 Y0.78 I-0.125 J0.0
G2 X1.2175 Y1.3125 I0.0 J0.5325
G2 X1.2888 Y1.5788 I0.5325 J0.0
G3 X1.2431 Y1.7495 I-0.1083 J0.0625
G1 X0.6872 Y2.0704
G3 X0.5165 Y2.0247 I-0.0625 J-0.1083
G1 F40.0 Z-0.9375
G1 F80.0 X0.3935 Y1.8118
G0 Z-0.825
G1 X0.1185 Y1.3355
G1 F40.0 Z-0.9375
G1 F80.0 X0.0732 Y1.2569
G3 X0.8634 Y-0.1119 I0.7902 J-0.4563
G1 X1.0372
G0 Z-0.825
G1 X1.5872
G1 F40.0 Z-0.9375
G1 F80.0 X1.75
G3 X1.875 Y0.0131 I0.0 J0.125
G1 Y0.655
G3 X1.75 Y0.78 I-0.125 J0.0
G2 X1.2175 Y1.3125 I0.0 J0.5325
G2 X1.2888 Y1.5788 I0.5325 J0.0
G3 X1.2431 Y1.7495 I-0.1083 J0.0625
G1 X0.6872 Y2.0704
G3 X0.5165 Y2.0247 I-0.0625 J-0.1083
G1 F40.0 Z-1.0
G1 F80.0 X0.3935 Y1.8118
G0 Z-0.825
G1 X0.1185 Y1.3355
G1 F40.0 Z-1.0
G1 F80.0 X0.0732 Y1.2569
G3 X0.8634 Y-0.1119 I0.7902 J-0.4563
G1 X1.0372
G0 Z-0.825
G1 X1.5872
G1 F40.0 Z-1.0
G1 F80.0 X1.75
G3 X1.875 Y0.0131 I0.0 J0.125
G1 Y0.655
G3 X1.75 Y0.78 I-0.125 J0.0
G2 X1.2175 Y1.3125 I0.0 J0.5325
G2 X1.2888 Y1.5788 I0.5325 J0.0
G3 X1.2431 Y1.7495 I-0.1083 J0.0625
G1 X0.6872 Y2.0704
G3 X0.5165 Y2.0247 I-0.0625 J-0.1083
G1 F40.0 Z-1.0625
G1 F80.0 X0.3935 Y1.8118
G0 Z-0.825
G1 X0.1185 Y1.3355
G1 F40.0 Z-1.0625
G1 F80.0 X0.0732 Y1.2569
G3 X0.8634 Y-0.1119 I0.7902 J-0.4563
G1 X1.0372
G0 Z-0.825
G1 X1.5872
G1 F40.0 Z-1.0625
G1 F80.0 X1.75
G3 X1.875 Y0.0131 I0.0 J0.125
G1 Y0.655
G3 X1.75 Y0.78 I-0.125 J0.0
G2 X1.2175 Y1.3125 I0.0 J0.5325
G2 X1.2888 Y1.5788 I0.5325 J0.0
G3 X1.2431 Y1.7495 I-0.1083 J0.0625
G1 X0.6872 Y2.0704
G3 X0.5165 Y2.0247 I-0.0625 J-0.1083
G1 F40.0 Z-1.125
G1 F80.0 X0.3935 Y1.8118
G0 Z-0.825
G1 X0.1185 Y1.3355
G1 F40.0 Z-1.125
G1 F80.0 X0.0732 Y1.2569
G3 X0.8634 Y-0.1119 I0.7902 J-0.4563
G1 X1.0372
G0 Z-0.825
G1 X1.5872
G1 F40.0 Z-1.125
G1 F80.0 X1.75
G3 X1.875 Y0.0131 I0.0 J0.125
G1 Y0.655
G3 X1.75 Y0.78 I-0.125 J0.0
G2 X1.2175 Y1.3125 I0.0 J0.5325
G2 X1.2888 Y1.5788 I0.5325 J0.0
G3 X1.2431 Y1.7495 I-0.1083 J0.0625
G1 X0.6872 Y2.0704
G3 X0.5165 Y2.0247 I-0.0625 J-0.1083
G0 Z0.125
M5
M30
