(.../pcb-gcode-3.6.2.4/pcb-gcode.ulp)
(Copyright 2005 - 2012 by John Johnson)
(See readme.txt for licensing terms.)
(This file generated from the board:)
(.../thrust_stand/eagle/thrust_stand.brd)
(Current profile is .../pcb-gcode-3.6.2.4/profiles/mach.pp  )
(This file generated 2/5/17 12:20 PM)
(Settings from pcb-machine.h)
(spindle on time = 0.0000)
(spindle speed = 20000.0000)
(tool change at 0.0000  0.0000  1.5000  )
(feed rate xy = F0     )
(feed rate z  = F20    )
(Z Axis Settings)
(  High     Up        Down     Drill)
(0.2500  	0.0500  	-0.0035 	-0.0710 )
(Settings from pcb-defaults.h)
(isolate min = 0.0040)
(isolate max = 0.0200)
(isolate step = 0.0025)
(Generated bottom outlines, bottom drill, )
(Unit of measure: inch)
( Tool|       Size       |  Min Sub |  Max Sub |   Count )
( T01 | 0.800mm 0.0315in | 0.0000in | 0.0000in |       0 )
( T02 | 0.813mm 0.0320in | 0.0000in | 0.0000in |       0 )
( T03 | 1.000mm 0.0394in | 0.0000in | 0.0000in |       0 )
( T04 | 1.016mm 0.0400in | 0.0000in | 0.0000in |       0 )
( T05 | 1.118mm 0.0440in | 0.0000in | 0.0000in |       0 )
( T06 | 1.702mm 0.0670in | 0.0000in | 0.0000in |       0 )
( T07 | 2.200mm 0.0866in | 0.0000in | 0.0000in |       0 )
( T08 | 3.302mm 0.1300in | 0.0000in | 0.0000in |       0 )
(Inch Mode)
G20
(Absolute Coordinates)
G90
S20000
G00 Z0.2500  
G00 X0.0000  Y0.0000  
M03
G04 P0.000000
M05
G00 Z1.5000  
M06 T01  ; 0.0315  
G01 Z0.0000  F20    
M06 
G00 Z0.0500  
M03
G04 P0.000000
G82 X-1.5000 Y0.5250  Z-0.0710 F20    R0.0500  P0.250000
G82 X-1.7000 Y0.4500  
G82 X-1.6250 Y0.3000  
G82 X-1.9000 Y0.4000  
G82 X-2.0250 Y0.7000  
G82 X-2.0250 Y1.0000  
G82 X-1.7500 Y1.1500  
G82 X-1.7500 Y1.3500  
M05
G00 Z1.5000  
G00 X0.0000  Y0.0000  
M06 T02  ; 0.0320  
G01 Z0.0000  F20    
M06 
G00 Z0.0500  
M03
G04 P0.000000
G82 X-0.5500 Y0.7250  Z-0.0710 F20    R0.0500  P0.250000
G82 X-0.7000 Y0.7000  
G82 X-0.7000 Y0.6000  
G82 X-0.8500 Y0.6000  
G82 X-0.9250 Y0.6500  
G82 X-1.0000 Y0.6750  
G82 X-0.8500 Y0.7000  
G82 X-1.0250 Y0.8500  
G82 X-1.1500 Y0.8000  
G82 X-1.1500 Y0.9000  
G82 X-1.1500 Y1.0000  
G82 X-1.1500 Y1.1000  
G82 X-1.0250 Y1.1500  
G82 X-1.3000 Y1.2500  
G82 X-1.4000 Y1.2500  
G82 X-1.6000 Y1.2500  
G82 X-1.6000 Y1.1500  
G82 X-1.6000 Y1.0500  
G82 X-1.6000 Y0.9500  
G82 X-1.6000 Y0.8500  
G82 X-1.6000 Y0.7500  
G82 X-1.6000 Y0.6500  
G82 X-1.6000 Y0.5500  
G82 X-1.9000 Y0.5500  
G82 X-1.9000 Y0.6500  
G82 X-1.9000 Y0.7500  
G82 X-1.9000 Y0.8500  
G82 X-1.9000 Y0.9500  
G82 X-1.9000 Y1.0500  
G82 X-1.9000 Y1.1500  
G82 X-1.9000 Y1.2500  
G82 X-1.9000 Y1.3500  
G82 X-1.9000 Y1.4500  
G82 X-1.9000 Y1.5500  
G82 X-1.9000 Y1.6500  
G82 X-1.9000 Y1.7500  
G82 X-1.9000 Y1.8500  
G82 X-1.9500 Y1.9750  
G82 X-2.0500 Y1.8000  
G82 X-2.2000 Y1.8500  
G82 X-2.2000 Y1.9500  
G82 X-2.0500 Y1.5000  
G82 X-2.0500 Y1.4250  
G82 X-2.4500 Y1.4250  
G82 X-2.4250 Y0.6250  
G82 X-2.3750 Y0.4250  
G82 X-2.4750 Y0.4250  
G82 X-2.7250 Y0.6250  
G82 X-1.6000 Y1.3500  
G82 X-1.6000 Y1.4500  
G82 X-1.6000 Y1.5500  
G82 X-1.6000 Y1.6500  
G82 X-1.6000 Y1.7500  
G82 X-1.6000 Y1.8500  
G82 X-1.6500 Y1.9750  
G82 X-1.3500 Y1.0450  
G82 X-1.3500 Y0.8550  
G82 X-1.3000 Y0.6750  
G82 X-0.5500 Y1.0250  
M05
G00 Z1.5000  
G00 X0.0000  Y0.0000  
M06 T03  ; 0.0394  
G01 Z0.0000  F20    
M06 
G00 Z0.0500  
M03
G04 P0.000000
G82 X-0.3500 Y1.2000  Z-0.0710 F20    R0.0500  P0.250000
G82 X-0.4500 Y1.2000  
G82 X-0.5500 Y1.2000  
G82 X-0.6500 Y1.2000  
G82 X-0.6500 Y1.5000  
G82 X-0.5500 Y1.5000  
G82 X-0.4500 Y1.5000  
G82 X-0.3500 Y1.5000  
G82 X-0.3500 Y1.8000  
G82 X-0.4500 Y1.8000  
G82 X-0.5500 Y1.8000  
G82 X-0.6500 Y1.8000  
G82 X-0.8244 Y1.6984  
G82 X-0.8244 Y1.5016  
G82 X-0.8250 Y1.9500  
G82 X-0.9250 Y1.9500  
G82 X-1.3953 Y1.6984  
G82 X-1.3953 Y1.6000  
G82 X-1.3953 Y1.5016  
G82 X-0.8000 Y0.9000  
G82 X-0.7000 Y0.9000  
G82 X-1.0000 Y0.4000  
G82 X-1.1000 Y0.4000  
G82 X-1.2000 Y0.4000  
G82 X-1.3000 Y0.4000  
G82 X-1.4000 Y0.4000  
G82 X-2.2000 Y0.5500  
G82 X-2.2000 Y0.6500  
G82 X-2.2000 Y0.7500  
G82 X-2.2000 Y0.8500  
G82 X-2.2000 Y0.9500  
G82 X-2.2000 Y1.0500  
G82 X-2.2000 Y1.1500  
G82 X-2.3750 Y1.9250  
G82 X-2.4750 Y1.9250  
M05
G00 Z1.5000  
G00 X0.0000  Y0.0000  
M06 T04  ; 0.0400  
G01 Z0.0000  F20    
M06 
G00 Z0.0500  
M03
G04 P0.000000
G82 X-2.3500 Y1.6750  Z-0.0710 F20    R0.0500  P0.250000
G82 X-2.4500 Y1.6750  
G82 X-2.5500 Y1.6750  
M05
G00 Z1.5000  
G00 X0.0000  Y0.0000  
M06 T05  ; 0.0440  
G01 Z0.0000  F20    
M06 
G00 Z0.0500  
M03
G04 P0.000000
G82 X-2.5250 Y1.1500  Z-0.0710 F20    R0.0500  P0.250000
G82 X-2.5250 Y1.2500  
G82 X-2.5250 Y1.3500  
M05
G00 Z1.5000  
G00 X0.0000  Y0.0000  
M06 T06  ; 0.0670  
G01 Z0.0000  F20    
M06 
G00 Z0.0500  
M03
G04 P0.000000
G82 X-2.5750 Y0.8000  Z-0.0710 F20    R0.0500  P0.250000
G82 X-2.5750 Y0.9500  
M05
G00 Z1.5000  
G00 X0.0000  Y0.0000  
M06 T07  ; 0.0866  
G01 Z0.0000  F20    
M06 
G00 Z0.0500  
M03
G04 P0.000000
G82 X-1.1000 Y1.3598  Z-0.0710 F20    R0.0500  P0.250000
G82 X-1.1000 Y1.8402  
M05
G00 Z1.5000  
G00 X0.0000  Y0.0000  
M06 T08  ; 0.1300  
G01 Z0.0000  F20    
M06 
G00 Z0.0500  
M03
G04 P0.000000
G82 X-3.2150 Y1.2500  Z-0.0710 F20    R0.0500  P0.250000
T01 
G00 Z0.2500  
M05
M02
