(.../pcb-gcode-3.6.2.4/pcb-gcode.ulp)
(Copyright 2005 - 2012 by John Johnson)
(See readme.txt for licensing terms.)
(This file generated from the board:)
(.../thrust_stand/eagle/thrust_stand.brd)
(Current profile is .../pcb-gcode-3.6.2.4/profiles/mach.pp  )
(This file generated 2/5/17 12:21 PM)
(Settings from pcb-machine.h)
(spindle on time = 0.0000)
(spindle speed = 15000.0000)
(milling depth = -0.0730)
(tool change at 0.0000  0.0000  1.5000  )
(feed rate xy = F10    )
(feed rate z  = F5     )
(Z Axis Settings)
(  High     Up        Down     Drill)
(0.2500  	0.0500  	-0.0035 	-0.0710 )
(Settings from pcb-defaults.h)
(isolate min = 0.0040)
(isolate max = 0.0200)
(isolate step = 0.0025)
(Generated bottom outlines, bottom drill, )
(Unit of measure: inch)
(Inch Mode)
G20
(Absolute Coordinates)
G90
S15000
G00 Z0.2500  
G00 X0.0000  Y0.0000  
M03
G04 P0.000000
G00 Z0.0500  
G00 X-0.2500 Y0.2000  
G01 Z-0.0730 F5     
G01 X-2.8000 Y0.2000  F10    
G01 X-2.8500 Y0.2500  
G01 X-2.8500 Y2.1500  
G01 X-2.8000 Y2.2000  
G01 X-0.2500 Y2.2000  
G01 X-0.2000 Y2.1500  
G01 X-0.2000 Y0.2500  
G01 X-0.2500 Y0.2000  
G00 Z0.0500  
G00 X-0.3250 Y0.3250  
G01 Z-0.0730 F5     
G01 X-0.4000 Y0.3250  F10    
G01 X-0.4000 Y0.4000  
G01 X-0.3250 Y0.4000  
G01 X-0.3250 Y0.3250  
G00 Z0.0500  
G00 X-0.3250 Y2.0000  
G01 Z-0.0730 F5     
G01 X-0.4000 Y2.0000  F10    
G01 X-0.4000 Y2.0750  
G01 X-0.3250 Y2.0750  
G01 X-0.3250 Y2.0000  
G00 Z0.0500  
G00 X-2.6500 Y2.0000  
G01 Z-0.0730 F5     
G01 X-2.7250 Y2.0000  F10    
G01 X-2.7250 Y2.0750  
G01 X-2.6500 Y2.0750  
G01 X-2.6500 Y2.0000  
G00 Z0.0500  
G00 X-2.6500 Y0.4000  
G01 Z-0.0730 F5     
G01 X-2.7250 Y0.4000  F10    
G01 X-2.7250 Y0.3250  
G01 X-2.6500 Y0.3250  
G01 X-2.6500 Y0.4000  
G00 Z0.2500  
M05
M02
